; generated by PrusaSlicer 2.4.0+x64 on 2021-12-28 at 22:06:36 UTC

; 

; external perimeters extrusion width = 0.45mm
; perimeters extrusion width = 0.45mm
; infill extrusion width = 0.45mm
; solid infill extrusion width = 0.45mm
; top infill extrusion width = 0.40mm
; support material extrusion width = 0.35mm
; first layer extrusion width = 0.42mm

M73 P0 R97
M73 Q0 S99
M201 X1000 Y1000 Z200 E5000 ; sets maximum accelerations, mm/sec^2
M203 X200 Y200 Z12 E120 ; sets maximum feedrates, mm/sec
M204 P1250 R1250 T1250 ; sets acceleration (P, T) and retract acceleration (R), mm/sec^2
M205 X8.00 Y8.00 Z0.40 E4.50 ; sets the jerk limits, mm/sec
M205 S0 T0 ; sets the minimum extruding and travel feed rate, mm/sec
M107
;TYPE:Custom
M862.3 P "MK3SMMU2S" ; printer model check
M862.1 P0.4 ; nozzle diameter check
M115 U3.10.0 ; tell printer latest fw version
G90 ; use absolute coordinates
M83 ; extruder relative mode
M104 S215 ; set extruder temp
M140 S60 ; set bed temp
Tx
M190 S60 ; wait for bed temp
M109 S215 ; wait for extruder temp
G28 W ; home all without mesh bed level
G80 ; mesh bed leveling

;go outside print area
G1 Y-3 F1000
G1 Z0.4 F1000
; select extruder
Tc
; purge line
G1 X55 F2000
G1 Z0.3 F1000
G92 E0
G1 X240 E25 F2200
G1 Y-2 F1000
G1 X55 E25 F1400
G1 Z0.2 F1000
G1 X5 E4 F1000

M221 S95
G92 E0

; Don't change E values below. Excessive value can damage the printer.
M907 E430 ; set extruder motor current
G21 ; set units to millimeters
G90 ; use absolute coordinates
M83 ; use relative distances for extrusion
M900 K0.05 ; Filament gcode LA 1.5
M900 K30 ; Filament gcode LA 1.0
M107
;LAYER_CHANGE
;Z:0.2
;HEIGHT:0.2
;BEFORE_LAYER_CHANGE
G92 E0.0
;0.2


G1 E-.8 F2100
G1 Z.4 F720
;AFTER_LAYER_CHANGE
;0.2
G1 X77.188 Y58.03 F10800
G1 Z.2 F720
G1 E.8 F2100
M204 S800
;TYPE:Skirt/Brim
;WIDTH:0.42
G1 F1200
G1 X77.815 Y57.304 E.03008
G1 X79.149 Y56.281 E.05271
G1 X80.23 Y55.675 E.03884
G1 X82.417 Y54.69 E.07523
G1 X85.505 Y53.509 E.10367
G1 X88.923 Y52.3 E.11367
G1 X92.135 Y51.269 E.10575
G1 X96.682 Y50.026 E.14783
G1 X101.11 Y49.097 E.14183
G1 X108.56 Y47.855 E.23681
G1 X112.815 Y47.755 E.13347
G1 X119.88 Y47.841 E.22155
G1 X129.815 Y48.136 E.31161
G1 X134.103 Y48.555 E.13511
G1 X138.132 Y49.325 E.1286
G1 X142.268 Y50.372 E.13377
G1 X146.884 Y51.715 E.15074
G1 X151.373 Y53.17 E.14795
G1 X155.105 Y54.562 E.1249
G1 X157.542 Y55.632 E.08345
G1 X158.916 Y56.407 E.04946
G1 X160.004 Y57.296 E.04406
M73 Q0 S98
G1 X160.457 Y57.835 E.02207
G1 X160.818 Y58.421 E.02158
G1 X161.074 Y59.015 E.02027
G1 X161.291 Y59.823 E.02623
G1 X165.858 Y82.053 E.71155
G1 X173.424 Y138.5 E1.7857
G1 X173.59 Y141.871 E.10583
M73 P0 R96
G1 X173.621 Y148.792 E.21699
G1 X173.491 Y153.964 E.16224
G1 X173.214 Y157.72 E.11809
G1 X173.009 Y158.95 E.0391
G1 X172.587 Y160.019 E.03602
G1 X171.714 Y161.132 E.04438
G1 X170.928 Y161.716 E.03068
G1 X169.984 Y162.109 E.03205
G1 X169.307 Y162.23 E.02158
G1 X167.768 Y162.156 E.0483
G1 X80.659 Y143.289 E2.79458
G1 X79.572 Y142.924 E.03595
G1 X78.48 Y142.236 E.04046
G1 X77.75 Y141.444 E.03378
G1 X76.981 Y140.229 E.04508
G1 X76.571 Y139.227 E.03395
G1 X76.438 Y138.248 E.03099
G1 X76.373 Y120.377 E.56033
G1 X76.385 Y60.399 E1.88056
G1 X76.501 Y59.534 E.02737
G1 X76.692 Y58.932 E.01982
G1 X77.159 Y58.083 E.03038
M204 S1000
; printing object untitled-path1934.stl id:0 copy 0
;WIPE_START
G1 F8640
G1 X77.815 Y57.304 E-.23511
G1 X79.149 Y56.281 E-.3882
G1 X79.666 Y55.992 E-.1367
;WIPE_END
G1 E-.04 F2100
G1 Z.6 F720
G1 X133.027 Y141.043 F10800
G1 Z.2 F720
G1 E.8 F2100
M204 S800
;TYPE:Perimeter
G1 F1200
G1 X133.402 Y140.99 E.01189
G1 X134.131 Y140.93 E.02293
G1 X136.236 Y140.814 E.06608
G1 X140.797 Y140.714 E.14304
G1 X144.657 Y140.671 E.12105
G1 X165.65 Y140.661 E.6582
G1 X165.65 Y146.244 E.17505
G1 X165.611 Y148.129 E.0591
G1 X165.547 Y149.221 E.0343
G1 X165.456 Y150.129 E.02862
G1 X165.337 Y150.825 E.02214
G1 X165.248 Y151.136 E.01014
G1 X164.955 Y151.736 E.02094
G1 X164.267 Y151.78 E.02161
G1 X163.943 Y151.762 E.01018
G1 X163.518 Y151.672 E.01363
G1 X163.097 Y151.514 E.0141
G1 X160.856 Y150.852 E.07326
G1 X156.986 Y149.642 E.12712
G1 X154.85 Y149.004 E.0699
G1 X152.309 Y148.276 E.08287
G1 X146.615 Y146.716 E.18512
G1 X139.834 Y144.952 E.21969
G1 X136.48 Y144.02 E.10916
G1 X134.71 Y143.484 E.05798
G1 X133.418 Y143.048 E.04275
G1 X132.912 Y142.848 E.01706
G1 X131.625 Y142.017 E.04803
G1 X132.738 Y141.084 E.04552
G1 X132.967 Y141.051 E.00728
M204 S1000
G1 X132.897 Y141.442 F10800
M204 S800
;TYPE:External perimeter
G1 F1200
G1 X133.444 Y141.365 E.01733
G1 X134.157 Y141.306 E.02242
G1 X136.25 Y141.191 E.06572
G1 X140.803 Y141.091 E.14279
G1 X144.659 Y141.048 E.12092
G1 X165.273 Y141.038 E.64631
G1 X165.273 Y146.24 E.16311
G1 X165.234 Y148.114 E.05875
G1 X165.171 Y149.191 E.03383
G1 X165.082 Y150.079 E.02796
G1 X164.969 Y150.741 E.02107
G1 X164.895 Y151 E.00846
G1 X164.712 Y151.374 E.01304
G1 X164.266 Y151.403 E.01402
G1 X163.993 Y151.387 E.00857
G1 X163.624 Y151.309 E.01185
G1 X163.216 Y151.156 E.01363
G1 X160.966 Y150.491 E.07359
G1 X157.097 Y149.281 E.12711
G1 X154.956 Y148.642 E.07004
G1 X152.411 Y147.913 E.08301
G1 X146.712 Y146.351 E.18527
G1 X139.932 Y144.588 E.21967
G1 X136.585 Y143.658 E.10893
G1 X134.825 Y143.125 E.05766
G1 X133.548 Y142.694 E.04226
G1 X133.085 Y142.511 E.01559
G1 X132.259 Y141.977 E.03084
G1 X132.851 Y141.481 E.02423
M204 S1000
G1 X132.837 Y141.047 F10800
;WIPE_START
G1 F8640
G1 X133.444 Y141.365 E-.13955
G1 X134.157 Y141.306 E-.16514
G1 X136.126 Y141.198 E-.45531
;WIPE_END
G1 E-.04 F2100
G1 Z.6 F720
G1 X166.171 Y154.746 F10800
G1 Z.2 F720
G1 E.8 F2100
M204 S800
;TYPE:Perimeter
G1 F1200
G1 X165.889 Y155.051 E.01302
G1 X165.633 Y155.526 E.01693
G1 X165.431 Y156.299 E.02505
G1 X165.41 Y157.061 E.02389
G1 X165.529 Y157.551 E.01581
G1 X163.898 Y156.287 E.06471
G1 X163.227 Y155.816 E.02569
G1 X162.53 Y155.37 E.02597
G1 X161.792 Y154.943 E.02673
G1 X161.003 Y154.53 E.02792
G1 X160.151 Y154.126 E.02956
G1 X159.224 Y153.726 E.03165
G1 X158.21 Y153.322 E.03421
G1 X155.868 Y152.48 E.07803
G1 X153.024 Y151.554 E.09378
G1 X147.993 Y150.031 E.16483
G1 X142.966 Y148.626 E.16367
G1 X137.936 Y147.34 E.16277
G1 X132.899 Y146.171 E.16215
G1 X127.847 Y145.118 E.1618
G1 X122.774 Y144.18 E.16175
G1 X117.674 Y143.357 E.16197
G1 X112.541 Y142.646 E.16248
G1 X107.369 Y142.047 E.16327
G1 X102.15 Y141.558 E.16434
G1 X96.884 Y141.18 E.16556
G1 X91.559 Y140.861 E.16724
G1 X87.014 Y140.672 E.14264
G1 X85.306 Y140.627 E.05357
G1 X83.301 Y140.481 E.06304
G1 X83.72 Y140.027 E.01937
G1 X83.891 Y139.774 E.00959
G1 X84.022 Y139.494 E.00969
G1 X84.118 Y139.188 E.01005
G1 X84.204 Y138.589 E.01899
G1 X84.204 Y137.922 E.02091
G1 X84.118 Y137.323 E.01899
G1 X84.022 Y137.017 E.01004
G1 X83.892 Y136.737 E.00967
G1 X83.718 Y136.479 E.00977
G1 X83.594 Y136.347 E.00567
G1 X83.332 Y135.943 E.0151
G1 X82.973 Y135.86 E.01155
G1 X123.899 Y135.85 E1.28321
G1 X148.637 Y135.893 E.77566
G1 X154.124 Y135.93 E.17204
G1 X158.564 Y135.985 E.13922
G1 X164.764 Y136.099 E.19442
G1 X166.3 Y136.175 E.04822
G1 X165.928 Y136.502 E.01554
G1 X165.647 Y136.977 E.01729
G1 X165.491 Y137.478 E.01645
G1 X165.414 Y137.942 E.01474
G1 X165.403 Y138.399 E.01433
G1 X165.457 Y138.842 E.01401
G1 X165.573 Y139.266 E.01378
G1 X165.753 Y139.663 E.01365
G1 X165.993 Y140.024 E.01361
G1 X166.3 Y140.349 E.014
G1 X167.024 Y140.845 E.02753
G1 X167.542 Y140.941 E.01652
G1 X168.455 Y140.975 E.02864
G1 X169.416 Y140.664 E.03167
G1 X169.846 Y140.362 E.01647
G1 X170.366 Y139.907 E.02168
G1 X170.426 Y141.923 E.06324
G1 X170.448 Y143.442 E.04764
G1 X170.463 Y147.335 E.12205
G1 X170.44 Y150.127 E.08754
G1 X170.375 Y152.679 E.08005
G1 X170.277 Y155.215 E.07956
G1 X169.955 Y154.854 E.01517
G1 X169.525 Y154.543 E.01664
G1 X169.089 Y154.331 E.01519
G1 X168.592 Y154.146 E.01661
G1 X168.066 Y154.107 E.01655
G1 X167.654 Y154.108 E.01292
G1 X167.132 Y154.161 E.01646
G1 X166.643 Y154.402 E.01707
G1 X166.212 Y154.702 E.01648
M204 S1000
;WIPE_START
G1 F8640
G1 X165.889 Y155.051 E-.10974
G1 X165.633 Y155.526 E-.12469
G1 X165.431 Y156.299 E-.18446
G1 X165.41 Y157.061 E-.17593
G1 X165.529 Y157.551 E-.11645
G1 X165.363 Y157.422 E-.04872
;WIPE_END
G1 E-.04 F2100
G1 Z.6 F720
G1 X83.098 Y136.276 F10800
G1 Z.2 F720
M73 P1 R96
G1 E.8 F2100
M204 S800
;TYPE:External perimeter
G1 F1200
G1 X83.296 Y136.582 E.0114
G1 X83.423 Y136.715 E.00577
G1 X83.563 Y136.923 E.00787
G1 X83.67 Y137.153 E.00796
G1 X83.749 Y137.406 E.0083
G1 X83.827 Y137.949 E.0172
G1 X83.827 Y138.562 E.01921
G1 X83.749 Y139.105 E.0172
G1 X83.67 Y139.358 E.0083
G1 X83.562 Y139.588 E.00796
G1 X83.423 Y139.794 E.0078
G1 X83.087 Y140.163 E.01565
G1 X82.805 Y140.286 E.00965
G1 X82.553 Y140.359 E.00821
G1 X82.28 Y140.393 E.00863
M73 Q1 S98
G1 X81.991 Y140.4 E.00908
G1 X81.338 Y140.341 E.02056
G1 X81.114 Y140.301 E.00712
G1 X80.572 Y140.083 E.01832
G1 X80.397 Y139.965 E.00661
G1 X80.266 Y139.817 E.00619
G1 X80.145 Y139.721 E.00484
G1 X79.948 Y139.361 E.01285
G1 X79.758 Y138.94 E.01449
G1 X79.639 Y138.502 E.01425
G1 X79.628 Y138.063 E.01376
G1 X79.717 Y137.661 E.01291
G1 X79.868 Y137.318 E.01176
G1 X80.041 Y137.018 E.01085
G1 X80.242 Y136.742 E.01068
G1 X80.777 Y136.176 E.02443
G1 X81.199 Y136.064 E.01369
G1 X81.592 Y136.027 E.01237
G1 X82.021 Y136.023 E.01346
G1 X82.58 Y136.104 E.0177
G1 X82.795 Y136.206 E.00748
G1 X83.04 Y136.263 E.00787
M204 S1000
G1 X83.448 Y136.177 F10800
;WIPE_START
G1 F8640
G1 X83.296 Y136.582 E-.09442
G1 X83.423 Y136.715 E-.04247
G1 X83.563 Y136.923 E-.05792
G1 X83.67 Y137.153 E-.0586
G1 X83.749 Y137.406 E-.06114
G1 X83.827 Y137.949 E-.12666
G1 X83.827 Y138.562 E-.1415
G1 X83.749 Y139.105 E-.12665
G1 X83.683 Y139.314 E-.05063
;WIPE_END
G1 E-.04 F2100
G1 Z.6 F720
G1 X170.22 Y139.534 F10800
G1 Z.2 F720
G1 E.8 F2100
M204 S800
G1 F1200
G1 X169.613 Y140.065 E.02531
G1 X169.246 Y140.323 E.01406
G1 X168.402 Y140.595 E.02779
G1 X167.584 Y140.565 E.02568
G1 X167.171 Y140.489 E.01316
G1 X166.546 Y140.061 E.02376
G1 X166.289 Y139.789 E.01172
G1 X166.084 Y139.48 E.01164
G1 X165.929 Y139.138 E.01177
G1 X165.828 Y138.769 E.01198
G1 X165.781 Y138.381 E.01228
G1 X165.791 Y137.977 E.01265
G1 X165.859 Y137.565 E.0131
G1 X165.994 Y137.131 E.01426
G1 X166.222 Y136.746 E.01404
G1 X166.569 Y136.44 E.0145
G1 X166.978 Y136.257 E.01405
G1 X167.431 Y136.144 E.01464
G1 X167.884 Y136.137 E.01419
G1 X169.189 Y136.204 E.04099
G1 X169.938 Y136.663 E.02755
G1 X170.23 Y136.948 E.01279
G1 X170.43 Y137.297 E.01259
G1 X170.534 Y137.674 E.01228
G1 X170.563 Y138.048 E.01173
G1 X170.523 Y138.407 E.01135
G1 X170.365 Y139.091 E.022
G1 X170.239 Y139.477 E.01271
M204 S1000
G1 X170.373 Y139.903 F10800
;WIPE_START
G1 F8640
G1 X169.613 Y140.065 E-.19843
G1 X169.246 Y140.323 E-.10352
G1 X168.402 Y140.595 E-.20469
G1 X167.584 Y140.565 E-.18914
G1 X167.31 Y140.514 E-.06422
;WIPE_END
G1 E-.04 F2100
G1 Z.6 F720
G1 X168.511 Y154.518 F10800
G1 Z.2 F720
G1 E.8 F2100
M204 S800
G1 F1200
G1 X168.94 Y154.678 E.01437
G1 X169.33 Y154.868 E.0136
G1 X169.701 Y155.136 E.01434
G1 X170.017 Y155.489 E.01485
G1 X170.224 Y155.915 E.01485
G1 X170.297 Y156.18 E.00861
G1 X170.414 Y156.825 E.02058
G1 X170.426 Y157.246 E.01318
G1 X170.34 Y157.668 E.01351
G1 X170.072 Y158.298 E.02147
G1 X169.925 Y158.543 E.00895
G1 X169.486 Y159.01 E.02009
G1 X168.973 Y159.261 E.0179
G1 X168.469 Y159.378 E.01622
G1 X167.959 Y159.352 E.01603
G1 X167.47 Y159.194 E.01611
G1 X167.023 Y158.922 E.01641
G1 X166.64 Y158.56 E.01653
G1 X166.475 Y158.363 E.00805
G1 X166.277 Y158.17 E.00867
G1 X165.941 Y157.646 E.01953
G1 X165.788 Y157.02 E.02018
G1 X165.806 Y156.353 E.02094
G1 X165.987 Y155.665 E.02228
G1 X166.198 Y155.271 E.01402
G1 X166.493 Y154.954 E.01359
G1 X166.832 Y154.729 E.01274
G1 X167.237 Y154.529 E.01419
G1 X167.674 Y154.485 E.01375
G1 X168.053 Y154.484 E.01188
G1 X168.451 Y154.514 E.01252
M204 S1000
G1 X168.791 Y154.232 F10800
;WIPE_START
G1 F8640
G1 X168.94 Y154.678 E-.11917
G1 X169.33 Y154.868 E-.10013
G1 X169.701 Y155.136 E-.10559
G1 X170.017 Y155.489 E-.10937
G1 X170.224 Y155.915 E-.10939
G1 X170.297 Y156.18 E-.06343
G1 X170.414 Y156.825 E-.15155
G1 X170.414 Y156.831 E-.00137
;WIPE_END
G1 E-.04 F2100
G1 Z.6 F720
G1 X80.741 Y135.535 F10800
G1 Z.2 F720
G1 E.8 F2100
M204 S800
G1 F1200
G1 X81.463 Y135.495 E.02266
G1 X84.348 Y135.472 E.09046
G1 X123.899 Y135.472 E1.2401
G1 X148.639 Y135.516 E.77571
G1 X154.128 Y135.553 E.17209
G1 X158.57 Y135.608 E.1393
G1 X164.777 Y135.722 E.19464
G1 X166.378 Y135.801 E.05026
G1 X167.728 Y135.757 E.04237
G1 X168.183 Y135.769 E.01425
G1 X169.098 Y135.912 E.02903
G1 X169.644 Y136.088 E.01799
G1 X169.949 Y136.283 E.01135
G1 X170.162 Y136.501 E.00956
G1 X170.349 Y136.758 E.00997
G1 X170.507 Y137.078 E.0112
G1 X170.643 Y137.492 E.01366
G1 X170.756 Y138.029 E.01721
G1 X170.842 Y138.696 E.02108
G1 X170.754 Y139.555 E.02705
G1 X170.743 Y139.924 E.01159
G1 X170.803 Y141.914 E.06244
G1 X170.825 Y143.439 E.0478
G1 X170.84 Y147.336 E.12219
G1 X170.817 Y150.133 E.08771
G1 X170.752 Y152.691 E.08023
G1 X170.647 Y155.415 E.08546
G1 X170.723 Y156.332 E.02885
G1 X170.717 Y156.736 E.01268
G1 X170.562 Y158.005 E.04008
G1 X170.456 Y158.391 E.01256
G1 X170.362 Y158.603 E.00729
G1 X170.23 Y158.791 E.00717
G1 X170.098 Y158.975 E.0071
G1 X169.814 Y159.267 E.01278
G1 X169.508 Y159.478 E.01165
G1 X169.172 Y159.616 E.01138
G1 X168.775 Y159.657 E.01252
G1 X168.308 Y159.625 E.0147
G1 X167.782 Y159.477 E.01712
G1 X167.189 Y159.229 E.02014
G1 X166.539 Y158.885 E.02308
G1 X166.208 Y158.655 E.01262
G1 X165.539 Y158.035 E.02863
G1 X163.674 Y156.591 E.07395
G1 X163.017 Y156.129 E.02516
G1 X162.333 Y155.692 E.02545
G1 X161.61 Y155.273 E.02621
G1 X160.834 Y154.868 E.02744
G1 X159.995 Y154.47 E.02912
G1 X159.079 Y154.074 E.03128
G1 X158.075 Y153.674 E.0339
G1 X156.969 Y153.264 E.03699
G1 X155.748 Y152.838 E.04055
G1 X152.911 Y151.914 E.09353
G1 X147.888 Y150.393 E.16458
G1 X142.868 Y148.99 E.16341
G1 X137.847 Y147.706 E.1625
G1 X132.818 Y146.539 E.16188
G1 X127.774 Y145.488 E.16153
G1 X122.71 Y144.552 E.16148
G1 X117.619 Y143.73 E.1617
G1 X112.494 Y143.02 E.16221
G1 X107.33 Y142.422 E.16301
G1 X102.119 Y141.934 E.16408
G1 X96.859 Y141.556 E.16536
G1 X91.54 Y141.238 E.16707
G1 X87.001 Y141.049 E.14245
G1 X85.287 Y141.004 E.05376
G1 X83.142 Y140.847 E.06745
G1 X81.879 Y140.781 E.03965
G1 X81.212 Y140.708 E.02102
G1 X80.728 Y140.572 E.01577
G1 X80.37 Y140.404 E.01241
G1 X80.097 Y140.201 E.01066
G1 X79.868 Y139.956 E.01051
G1 X79.67 Y139.64 E.01172
G1 X79.376 Y139.033 E.02115
G1 X79.224 Y138.583 E.01489
G1 X79.192 Y138.416 E.00533
G1 X79.196 Y138.073 E.01074
G1 X79.302 Y137.669 E.01311
G1 X79.545 Y137.121 E.01879
G1 X79.74 Y136.791 E.01202
G1 X79.989 Y136.448 E.01329
G1 X80.566 Y135.771 E.02788
G1 X80.705 Y135.583 E.00734
M204 S1000
G1 X81.043 Y135.798 F10800
G1 X80.738 Y135.855
M204 S800
;TYPE:Gap fill
;WIDTH:0.272464
G1 F1200
G1 X81.143 Y135.791 E.00782
M204 S1000
M204 S800
;WIDTH:0.222477
G1 X81.157 Y135.79 E.00022
M204 S1000
M204 S800
;WIDTH:0.220692
G1 X81.471 Y135.766 E.00465
M204 S1000
M204 S800
;WIDTH:0.207974
G1 X81.575 Y135.761 E.00142
M204 S1000
M204 S800
;WIDTH:0.198952
G1 X81.581 Y135.761 E.00009
M204 S1000
M204 S800
;WIDTH:0.198656
G1 X82.033 Y135.757 E.00585
M204 S1000
M204 S800
;WIDTH:0.198677
G1 X82.045 Y135.757 E.00016
M204 S1000
M204 S800
;WIDTH:0.245172
G1 X82.349 Y135.778 E.00512
M204 S1000
M204 S800
;WIDTH:0.291665
G1 X82.653 Y135.799 E.0063
M204 S1000
M204 S800
;WIDTH:0.293804
G1 X82.664 Y135.8 E.00023
M204 S1000
M204 S800
;WIDTH:0.293804
G1 X82.771 Y135.97 E.00419
M204 S1000
;WIPE_START
G1 F8640
G1 X82.664 Y135.8 E-.04641
;WIPE_END
G1 E-.75359 F2100
G1 Z.6 F720
G1 X81.098 Y135.704 F10800
G1 Z.2 F720
G1 E.8 F2100
M204 S800
;WIDTH:0.161492
G1 F1200
G1 X80.645 Y136 E.00533
M204 S1000
;WIPE_START
G1 F8640
G1 X81.098 Y135.704 E-.12489
;WIPE_END
G1 E-.67511 F2100
G1 Z.6 F720
G1 X79.417 Y138.057 F10800
G1 Z.2 F720
G1 E.8 F2100
M204 S800
;WIDTH:0.0991138
G1 F1200
G1 X79.412 Y138.102 E.00021
M204 S1000
M204 S800
;WIDTH:0.109707
G1 X79.414 Y138.396 E.00163
M204 S1000
M204 S800
;WIDTH:0.109708
G1 X79.428 Y138.523 E.00071
M204 S1000
;WIPE_START
G1 F8640
G1 X79.414 Y138.396 E-.02945
;WIPE_END
