; generated by PrusaSlicer 2.4.0+x64 on 2021-12-28 at 01:03:00 UTC

; 

; external perimeters extrusion width = 0.45mm
; perimeters extrusion width = 0.45mm
; infill extrusion width = 0.45mm
; solid infill extrusion width = 0.45mm
; top infill extrusion width = 0.40mm
; support material extrusion width = 0.35mm
; first layer extrusion width = 0.42mm

M73 P0 R64
M73 Q0 S65
M201 X1000 Y1000 Z200 E5000 ; sets maximum accelerations, mm/sec^2
M203 X200 Y200 Z12 E120 ; sets maximum feedrates, mm/sec
M204 P1250 R1250 T1250 ; sets acceleration (P, T) and retract acceleration (R), mm/sec^2
M205 X8.00 Y8.00 Z0.40 E4.50 ; sets the jerk limits, mm/sec
M205 S0 T0 ; sets the minimum extruding and travel feed rate, mm/sec
M107
;TYPE:Custom
M862.3 P "MK3SMMU2S" ; printer model check
M862.1 P0.4 ; nozzle diameter check
M115 U3.10.0 ; tell printer latest fw version
G90 ; use absolute coordinates
M83 ; extruder relative mode
M104 S215 ; set extruder temp
M140 S60 ; set bed temp
Tx
M190 S60 ; wait for bed temp
M109 S215 ; wait for extruder temp
G28 W ; home all without mesh bed level
G80 ; mesh bed leveling

;go outside print area
G1 Y-3 F1000
G1 Z0.4 F1000
; select extruder
Tc
; purge line
G1 X55 F2000
G1 Z0.3 F1000
G92 E0
G1 X240 E25 F2200
G1 Y-2 F1000
G1 X55 E25 F1400
G1 Z0.2 F1000
G1 X5 E4 F1000

M221 S95
G92 E0

; Don't change E values below. Excessive value can damage the printer.
M907 E430 ; set extruder motor current
G21 ; set units to millimeters
G90 ; use absolute coordinates
M83 ; use relative distances for extrusion
M900 K0.05 ; Filament gcode LA 1.5
M900 K30 ; Filament gcode LA 1.0
M107
;LAYER_CHANGE
;Z:0.2
;HEIGHT:0.2
;BEFORE_LAYER_CHANGE
G92 E0.0
;0.2


G1 E-.8 F2100
G1 Z.4 F720
;AFTER_LAYER_CHANGE
;0.2
G1 X45.382 Y59.316 F10800
G1 Z.2 F720
G1 E.8 F2100
M204 S800
;TYPE:Skirt/Brim
;WIDTH:0.42
G1 F1200
G1 X46.065 Y58.856 E.02582
G1 X47.142 Y58.357 E.0372
G1 X48.312 Y58.02 E.03817
G1 X49.409 Y57.896 E.03463
G1 X162.609 Y58.047 E3.54931
G1 X164.351 Y58.203 E.05484
G1 X165.455 Y58.463 E.03558
G1 X166.922 Y59.046 E.04947
G1 X167.905 Y59.615 E.03562
G1 X169.177 Y60.615 E.05075
G1 X169.963 Y61.409 E.03501
G1 X171.277 Y63.066 E.06633
G1 X171.963 Y64.261 E.0432
G1 X205.706 Y147.824 E2.82561
G1 X205.822 Y148.196 E.01222
M73 Q0 S64
G1 X205.886 Y148.912 E.02253
G1 X205.788 Y149.57 E.02086
G1 X205.529 Y150.299 E.02425
G1 X204.949 Y151.16 E.03255
G1 X204.471 Y151.559 E.01953
G1 X203.894 Y151.858 E.02038
G1 X203.197 Y152.044 E.02262
G1 X202.123 Y152.104 E.03374
G1 X197.826 Y151.687 E.13535
G1 X189.409 Y150.413 E.26692
G1 X180.02 Y148.774 E.29883
G1 X174.911 Y147.74 E.16342
G1 X169.523 Y146.433 E.17383
G1 X161.94 Y144.385 E.24629
G1 X157.018 Y142.906 E.16115
G1 X152.186 Y141.329 E.15937
G1 X147.352 Y139.627 E.16069
G1 X144.877 Y138.71 E.08276
G1 X135.666 Y135.014 E.31117
G1 X126.666 Y130.946 E.30967
G1 X117.975 Y126.559 E.30527
G1 X109.414 Y121.763 E.30767
G1 X101.082 Y116.608 E.30719
G1 X92.903 Y111.038 E.31028
G1 X85.052 Y105.175 E.30723
G1 X77.528 Y99.032 E.30454
G1 X70.178 Y92.485 E.30864
G1 X63.017 Y85.529 E.31303
G1 X56.198 Y78.31 E.31135
G1 X49.717 Y70.841 E.31007
G1 X46.922 Y67.368 E.13976
M73 P1 R64
G1 X45.207 Y64.929 E.0935
M73 Q1 S64
G1 X44.394 Y63.305 E.05692
G1 X44.129 Y62.083 E.03921
G1 X44.208 Y61.124 E.03017
G1 X44.513 Y60.331 E.02665
G1 X45.039 Y59.622 E.02768
G1 X45.337 Y59.356 E.01254
M204 S1000
; printing object leg.stl id:0 copy 0
;WIPE_START
G1 F8640
G1 X46.065 Y58.856 E-.20387
G1 X47.142 Y58.357 E-.27398
G1 X48.312 Y58.02 E-.28111
G1 X48.316 Y58.02 E-.00104
;WIPE_END
G1 E-.04 F2100
G1 Z.6 F720
G1 X125.89 Y110.333 F10800
G1 Z.2 F720
G1 E.8 F2100
M204 S800
;TYPE:Perimeter
G1 F1200
G1 X126.043 Y110.039 E.01038
G1 X126.607 Y109.288 E.02945
G1 X127.397 Y108.347 E.03852
G1 X128.391 Y107.23 E.04691
G1 X129.554 Y105.972 E.05371
G1 X132.213 Y103.215 E.12009
G1 X135.038 Y100.42 E.12461
G1 X136.41 Y99.116 E.05934
G1 X137.697 Y97.935 E.05476
G1 X138.856 Y96.921 E.04828
G1 X140.142 Y95.855 E.05238
G1 X141.163 Y95.072 E.04034
G1 X141.611 Y94.767 E.01698
G1 X142.024 Y94.518 E.01513
G1 X142.418 Y94.319 E.01385
G1 X142.806 Y94.169 E.01304
G1 X143.208 Y94.069 E.01298
G1 X143.565 Y94.026 E.01129
G1 X143.934 Y94.029 E.01156
G1 X144.297 Y94.072 E.01146
G1 X144.77 Y94.177 E.01519
G1 X145.226 Y94.348 E.01529
G1 X145.655 Y94.604 E.01565
G1 X146.037 Y94.947 E.01608
G1 X146.36 Y95.368 E.01664
G1 X146.631 Y95.859 E.0176
G1 X146.865 Y96.424 E.01917
G1 X147.073 Y97.075 E.02141
G1 X147.266 Y97.824 E.02427
G1 X147.454 Y98.69 E.02777
G1 X147.833 Y100.807 E.06742
G1 X148.184 Y103.152 E.07435
G1 X148.324 Y104.274 E.03546
G1 X148.531 Y106.435 E.06806
G1 X148.647 Y108.558 E.06667
G1 X148.675 Y110.707 E.06738
G1 X148.619 Y112.945 E.07019
G1 X148.512 Y115.161 E.06957
G1 X148.495 Y116.017 E.02684
G1 X148.508 Y116.685 E.02095
G1 X148.547 Y117.148 E.01457
G1 X148.586 Y117.328 E.00578
G1 X148.684 Y117.421 E.00423
G1 X148.877 Y117.66 E.00966
G1 X149.031 Y117.933 E.0098
G1 X149.133 Y118.235 E.00999
G1 X149.171 Y118.554 E.01008
G1 X149.142 Y118.872 E.01001
G1 X149.054 Y119.172 E.00982
G1 X148.919 Y119.448 E.00963
G1 X148.746 Y119.698 E.00954
G1 X148.533 Y119.937 E.01003
G1 X148.047 Y120.346 E.01993
G1 X147.393 Y120.737 E.02388
G1 X146.683 Y121.024 E.02402
G1 X145.939 Y121.21 E.02404
G1 X145.174 Y121.3 E.02413
G1 X144.402 Y121.301 E.02423
G1 X143.632 Y121.215 E.02429
G1 X142.876 Y121.045 E.0243
G1 X142.145 Y120.792 E.02425
G1 X141.451 Y120.456 E.02417
G1 X140.806 Y120.038 E.02409
G1 X140.226 Y119.535 E.02408
G1 X139.735 Y118.956 E.0238
G1 X139.541 Y118.65 E.01138
G1 X139.369 Y118.318 E.0117
G1 X139.089 Y117.625 E.02345
G1 X138.871 Y116.883 E.02423
G1 X138.73 Y116.15 E.0234
G1 X138.687 Y115.505 E.02029
G1 X137.923 Y115.265 E.02509
G1 X136.783 Y114.984 E.03683
G1 X135.064 Y114.605 E.05518
G1 X132.581 Y113.992 E.08019
G1 X131.408 Y113.671 E.03813
G1 X129.311 Y113.039 E.06867
G1 X128.406 Y112.733 E.02995
G1 X127.623 Y112.441 E.0262
G1 X126.969 Y112.165 E.02228
G1 X126.439 Y111.894 E.01866
G1 X125.958 Y111.549 E.01857
G1 X125.615 Y110.857 E.0242
G1 X125.862 Y110.386 E.01668
M204 S1000
G1 X126.038 Y110.862 F10800
M204 S800
;TYPE:External perimeter
G1 F1200
G1 X126.363 Y110.241 E.02197
G1 X126.902 Y109.522 E.02817
G1 X127.682 Y108.594 E.03803
G1 X128.671 Y107.483 E.04663
G1 X129.829 Y106.231 E.05347
G1 X132.481 Y103.48 E.11983
G1 X135.301 Y100.69 E.12435
G1 X136.668 Y99.391 E.05912
G1 X137.948 Y98.216 E.05451
G1 X139.1 Y97.208 E.04798
G1 X140.377 Y96.15 E.05199
G1 X141.384 Y95.378 E.03979
G1 X141.814 Y95.085 E.01633
G1 X142.206 Y94.848 E.01435
G1 X142.572 Y94.664 E.01282
G1 X142.92 Y94.529 E.01171
G1 X143.276 Y94.44 E.0115
G1 X143.586 Y94.403 E.00979
G1 X143.91 Y94.406 E.01015
G1 X144.233 Y94.444 E.01022
G1 X144.662 Y94.539 E.01377
G1 X145.062 Y94.69 E.0134
G1 X145.431 Y94.909 E.01344
G1 X145.759 Y95.204 E.01384
G1 X146.044 Y95.575 E.01467
G1 X146.291 Y96.023 E.01604
G1 X146.51 Y96.554 E.01802
G1 X146.71 Y97.179 E.02059
G1 X146.899 Y97.911 E.0237
G1 X147.084 Y98.763 E.02733
G1 X147.461 Y100.868 E.06704
G1 X147.81 Y103.203 E.07404
G1 X147.949 Y104.315 E.03515
G1 X148.155 Y106.463 E.06764
G1 X148.27 Y108.57 E.06618
G1 X148.298 Y110.704 E.06691
G1 X148.242 Y112.931 E.06983
G1 X148.135 Y115.148 E.0696
G1 X148.118 Y116.017 E.02724
G1 X148.131 Y116.704 E.02157
G1 X148.174 Y117.203 E.01569
G1 X148.233 Y117.484 E.00901
G1 X148.269 Y117.548 E.0023
G1 X148.407 Y117.678 E.00594
G1 X148.564 Y117.873 E.00787
G1 X148.685 Y118.087 E.00771
G1 X148.763 Y118.318 E.00764
G1 X148.792 Y118.559 E.00762
G1 X148.77 Y118.801 E.00762
G1 X148.702 Y119.035 E.00764
G1 X148.593 Y119.256 E.00773
G1 X148.449 Y119.465 E.00795
G1 X148.27 Y119.666 E.00844
G1 X147.827 Y120.038 E.01812
G1 X147.225 Y120.398 E.02201
G1 X146.566 Y120.665 E.02228
G1 X145.871 Y120.838 E.02247
G1 X145.152 Y120.923 E.02268
G1 X144.423 Y120.924 E.02287
G1 X143.694 Y120.842 E.02298
G1 X142.979 Y120.681 E.02299
G1 X142.289 Y120.443 E.0229
G1 X141.636 Y120.127 E.02273
G1 X141.034 Y119.736 E.02253
G1 X140.495 Y119.269 E.02235
G1 X140.04 Y118.732 E.02208
G1 X139.868 Y118.461 E.01005
G1 X139.712 Y118.161 E.01062
G1 X139.445 Y117.501 E.02231
G1 X139.238 Y116.794 E.02309
G1 X139.104 Y116.102 E.02211
G1 X139.063 Y115.48 E.01954
G1 X139.083 Y115.251 E.0072
G1 X138.613 Y115.074 E.01574
G1 X138.021 Y114.901 E.01934
G1 X136.868 Y114.617 E.03723
G1 X135.15 Y114.238 E.05517
G1 X132.676 Y113.627 E.0799
G1 X131.512 Y113.309 E.03783
G1 X129.426 Y112.68 E.06832
G1 X128.533 Y112.377 E.02957
G1 X127.763 Y112.091 E.02577
G1 X127.128 Y111.823 E.02159
G1 X126.636 Y111.572 E.01734
G1 X126.254 Y111.297 E.01473
G1 X126.065 Y110.916 E.01335
M204 S1000
G1 X125.711 Y110.632 F10800
;WIPE_START
G1 F8640
G1 X126.363 Y110.241 E-.1703
G1 X126.902 Y109.522 E-.20743
G1 X127.682 Y108.594 E-.28003
G1 X127.976 Y108.263 E-.10224
;WIPE_END
G1 E-.04 F2100
G1 Z.6 F720
G1 X159.953 Y68.514 F10800
G1 Z.2 F720
G1 E.8 F2100
M204 S800
;TYPE:Perimeter
G1 F1200
G1 X159.938 Y68.156 E.01123
G1 X160.036 Y67.613 E.01729
G1 X160.259 Y67.004 E.02034
G1 X160.411 Y66.72 E.0101
G1 X160.588 Y66.466 E.00971
G1 X160.8 Y66.238 E.00978
G1 X161.049 Y66.044 E.00987
G1 X161.326 Y65.894 E.00988
G1 X161.624 Y65.792 E.0099
G1 X161.947 Y65.735 E.01026
G1 X162.238 Y65.719 E.00915
G1 X162.555 Y65.737 E.00994
G1 X162.908 Y65.791 E.01122
G1 X163.157 Y65.872 E.00819
G1 X163.065 Y65.656 E.00736
G1 X163.014 Y65.302 E.01119
G1 X163.081 Y64.955 E.01109
G1 X163.209 Y64.673 E.0097
G1 X163.374 Y64.438 E.00903
G1 X163.577 Y64.226 E.00918
G1 X163.986 Y63.934 E.01576
G1 X164.245 Y63.809 E.00903
G1 X164.507 Y63.719 E.00868
G1 X164.788 Y63.663 E.009
G1 X165.09 Y63.651 E.00949
G1 X165.393 Y63.696 E.00959
G1 X165.662 Y63.788 E.00891
G1 X165.899 Y63.911 E.00836
G1 X166.112 Y64.066 E.00826
G1 X166.297 Y64.25 E.00817
G1 X166.451 Y64.457 E.0081
G1 X166.582 Y64.701 E.0087
G1 X166.716 Y65.172 E.01535
G1 X166.717 Y65.669 E.01557
G1 X166.662 Y65.945 E.00882
G1 X166.57 Y66.219 E.00908
G1 X166.372 Y66.574 E.01275
G1 X166.08 Y66.876 E.01317
G1 X165.728 Y67.086 E.01282
G1 X165.344 Y67.197 E.01256
G1 X164.957 Y67.207 E.01214
G1 X164.838 Y67.185 E.00378
G1 X165.034 Y67.684 E.01682
G1 X165.095 Y68.18 E.01566
G1 X165.048 Y68.675 E.0156
G1 X164.899 Y69.156 E.01577
G1 X164.653 Y69.609 E.01617
G1 X164.314 Y70.021 E.01674
G1 X163.882 Y70.389 E.01779
G1 X163.398 Y70.664 E.01744
G1 X162.878 Y70.823 E.01707
G1 X162.344 Y70.857 E.01677
G1 X161.794 Y70.748 E.01758
G1 X161.869 Y71.079 E.01064
G1 X161.871 Y71.475 E.01243
G1 X161.777 Y71.856 E.01228
G1 X161.606 Y72.201 E.01207
G1 X161.357 Y72.503 E.01227
G1 X161.039 Y72.744 E.01251
G1 X160.663 Y72.907 E.01285
G1 X160.249 Y72.977 E.01317
G1 X159.818 Y72.952 E.01353
G1 X159.539 Y72.876 E.00908
G1 X159.131 Y72.657 E.01451
G1 X158.78 Y72.361 E.0144
G1 X158.487 Y72.018 E.01416
G1 X158.263 Y71.641 E.01375
G1 X158.171 Y71.4 E.00809
G1 X158.116 Y71.135 E.00849
G1 X158.123 Y70.811 E.01017
G1 X158.245 Y70.495 E.01063
G1 X158.461 Y70.203 E.01137
G1 X158.791 Y69.88 E.01448
G1 X159.096 Y69.645 E.01208
G1 X159.415 Y69.453 E.01165
G1 X159.775 Y69.328 E.01196
G1 X160.161 Y69.3 E.01214
G1 X160.122 Y69.238 E.00231
G1 X159.962 Y68.71 E.01728
G1 X159.956 Y68.574 E.00428
M204 S1000
;WIPE_START
G1 F8640
G1 X159.938 Y68.156 E-.09653
G1 X160.036 Y67.613 E-.12734
G1 X160.259 Y67.004 E-.14981
G1 X160.411 Y66.72 E-.07438
G1 X160.588 Y66.466 E-.07148
G1 X160.8 Y66.238 E-.07205
G1 X161.049 Y66.044 E-.07269
G1 X161.326 Y65.894 E-.07279
G1 X161.42 Y65.862 E-.02293
;WIPE_END
G1 E-.04 F2100
G1 Z.6 F720
G1 X160.038 Y69.687 F10800
G1 Z.2 F720
G1 E.8 F2100
M204 S800
;TYPE:External perimeter
G1 F1200
G1 X160.143 Y69.679 E.0033
G1 X160.42 Y69.765 E.00907
G1 X160.837 Y70.092 E.01664
G1 X161.266 Y70.524 E.01908
G1 X161.422 Y70.814 E.01036
G1 X161.492 Y71.122 E.00989
G1 X161.493 Y71.43 E.00966
G1 X161.42 Y71.725 E.00954
G1 X161.287 Y71.995 E.00943
G1 X161.094 Y72.23 E.00952
G1 X160.848 Y72.416 E.00969
G1 X160.555 Y72.543 E.00999
G1 X160.229 Y72.598 E.0104
G1 X159.88 Y72.578 E.01096
G1 X159.679 Y72.523 E.0065
G1 X159.344 Y72.343 E.01193
G1 X159.047 Y72.092 E.01221
G1 X158.794 Y71.798 E.01217
G1 X158.604 Y71.476 E.01171
G1 X158.534 Y71.294 E.00613
G1 X158.494 Y71.1 E.0062
G1 X158.498 Y70.885 E.00675
G1 X158.579 Y70.678 E.00696
G1 X158.746 Y70.451 E.00884
G1 X159.039 Y70.165 E.01283
G1 X159.309 Y69.957 E.01069
G1 X159.575 Y69.797 E.00974
G1 X159.852 Y69.701 E.00919
G1 X159.978 Y69.691 E.00397
M204 S1000
G1 X160.079 Y69.59 F10800
G1 X160.467 Y69.079
M204 S800
G1 F1200
G1 X160.337 Y68.646 E.01415
G1 X160.316 Y68.182 E.01459
G1 X160.401 Y67.713 E.01494
G1 X160.604 Y67.159 E.01851
G1 X160.733 Y66.917 E.00858
G1 X160.882 Y66.703 E.00817
G1 X161.056 Y66.517 E.008
G1 X161.255 Y66.361 E.00794
G1 X161.478 Y66.241 E.00792
G1 X161.719 Y66.158 E.008
G1 X161.99 Y66.111 E.00863
G1 X162.238 Y66.097 E.00778
G1 X162.516 Y66.113 E.00873
G1 X162.821 Y66.159 E.00969
G1 X163.285 Y66.31 E.0153
G1 X163.664 Y66.552 E.01409
G1 X164.276 Y67.044 E.0246
G1 X164.519 Y67.386 E.01317
G1 X164.665 Y67.775 E.01302
G1 X164.716 Y68.185 E.01297
G1 X164.676 Y68.601 E.01308
G1 X164.55 Y69.008 E.01338
G1 X164.338 Y69.397 E.01387
G1 X164.044 Y69.756 E.01456
G1 X163.665 Y70.079 E.01561
G1 X163.248 Y70.315 E.01501
G1 X162.81 Y70.449 E.01439
G1 X162.366 Y70.478 E.01392
G1 X161.938 Y70.399 E.01367
G1 X161.556 Y70.213 E.01332
G1 X161.249 Y69.964 E.01238
G1 X160.702 Y69.445 E.02363
G1 X160.5 Y69.129 E.01177
M204 S1000
G1 X160.069 Y69.044 F10800
;WIPE_START
G1 F8640
G1 X160.337 Y68.646 E-.11762
G1 X160.316 Y68.182 E-.10742
G1 X160.401 Y67.713 E-.11004
G1 X160.604 Y67.159 E-.13628
G1 X160.733 Y66.917 E-.0632
G1 X160.882 Y66.703 E-.06013
G1 X161.056 Y66.517 E-.05894
G1 X161.255 Y66.361 E-.05844
G1 X161.438 Y66.262 E-.04792
;WIPE_END
G1 E-.04 F2100
G1 Z.6 F720
G1 X163.573 Y65.885 F10800
G1 Z.2 F720
G1 E.8 F2100
M204 S800
G1 F1200
G1 X163.431 Y65.553 E.01133
G1 X163.396 Y65.311 E.00766
G1 X163.443 Y65.07 E.0077
G1 X163.538 Y64.861 E.0072
G1 X163.666 Y64.678 E.00702
G1 X163.825 Y64.513 E.00717
G1 X164.179 Y64.259 E.01365
G1 X164.389 Y64.158 E.00731
G1 X164.605 Y64.084 E.00718
G1 X164.833 Y64.038 E.00728
G1 X165.07 Y64.029 E.00744
G1 X165.303 Y64.064 E.0074
G1 X165.513 Y64.136 E.00696
G1 X165.7 Y64.232 E.00659
G1 X165.866 Y64.354 E.00647
G1 X166.011 Y64.497 E.00639
G1 X166.132 Y64.66 E.00634
G1 X166.231 Y64.844 E.00655
G1 X166.339 Y65.225 E.01243
G1 X166.34 Y65.632 E.01275
G1 X166.297 Y65.847 E.00689
G1 X166.223 Y66.066 E.00723
G1 X166.066 Y66.348 E.01012
G1 X165.844 Y66.578 E.01005
G1 X165.577 Y66.737 E.00972
G1 X165.285 Y66.821 E.00953
G1 X164.987 Y66.829 E.00934
G1 X164.695 Y66.773 E.00934
G1 X164.427 Y66.647 E.0093
G1 X163.995 Y66.334 E.01673
G1 X163.78 Y66.138 E.00911
G1 X163.611 Y65.932 E.00836
M204 S1000
G1 X163.212 Y65.884 F10800
;WIPE_START
G1 F8640
G1 X163.431 Y65.553 E-.09678
G1 X163.396 Y65.311 E-.05641
G1 X163.443 Y65.07 E-.05671
G1 X163.538 Y64.861 E-.053
G1 X163.666 Y64.678 E-.05172
G1 X163.825 Y64.513 E-.05283
G1 X164.179 Y64.259 E-.10054
G1 X164.389 Y64.158 E-.05381
G1 X164.605 Y64.084 E-.0529
G1 X164.833 Y64.038 E-.05358
G1 X165.07 Y64.029 E-.05477
G1 X165.303 Y64.064 E-.05446
G1 X165.395 Y64.095 E-.02248
;WIPE_END
G1 E-.04 F2100
G1 Z.6 F720
G1 X113.284 Y109.379 F10800
G1 Z.2 F720
G1 E.8 F2100
M204 S800
;TYPE:Perimeter
G1 F1200
G1 X112.837 Y110.32 E.03268
G1 X111.951 Y111.965 E.05859
G1 X111.723 Y112.304 E.0128
G1 X111.382 Y112.625 E.01468
G1 X110.905 Y112.821 E.01616
G1 X110.401 Y112.831 E.01584
G1 X109.915 Y112.724 E.0156
G1 X109.395 Y112.538 E.0173
G1 X108.783 Y112.275 E.02089
G1 X106.042 Y110.975 E.09513
G1 X104.895 Y110.409 E.04008
G1 X102.314 Y109.048 E.0915
G1 X100.947 Y108.292 E.04898
G1 X98.262 Y106.75 E.09708
G1 X95.88 Y105.306 E.08734
M73 P1 R63
G1 X94.89 Y104.671 E.03687
G1 X94.081 Y104.123 E.03063
G1 X93.47 Y103.665 E.02396
G1 X93.004 Y103.215 E.02031
G1 X92.873 Y102.828 E.01282
G1 X92.876 Y102.499 E.01031
G1 X92.98 Y102.035 E.0149
G1 X93.158 Y101.563 E.01581
G1 X93.385 Y101.1 E.0162
G1 X93.651 Y100.681 E.01555
G1 X93.82 Y100.473 E.00839
G1 X94.049 Y100.258 E.00987
G1 X94.3 Y100.137 E.00874
G1 X94.551 Y100.093 E.00798
