; generated by PrusaSlicer 2.4.0+x64 on 2021-12-28 at 13:32:47 UTC

; 

; external perimeters extrusion width = 0.45mm
; perimeters extrusion width = 0.45mm
; infill extrusion width = 0.45mm
; solid infill extrusion width = 0.45mm
; top infill extrusion width = 0.40mm
; support material extrusion width = 0.35mm
; first layer extrusion width = 0.42mm

M73 P0 R129
M73 Q0 S130
M201 X1000 Y1000 Z200 E5000 ; sets maximum accelerations, mm/sec^2
M203 X200 Y200 Z12 E120 ; sets maximum feedrates, mm/sec
M204 P1250 R1250 T1250 ; sets acceleration (P, T) and retract acceleration (R), mm/sec^2
M205 X8.00 Y8.00 Z0.40 E4.50 ; sets the jerk limits, mm/sec
M205 S0 T0 ; sets the minimum extruding and travel feed rate, mm/sec
M107
;TYPE:Custom
M862.3 P "MK3SMMU2S" ; printer model check
M862.1 P0.4 ; nozzle diameter check
M115 U3.10.0 ; tell printer latest fw version
G90 ; use absolute coordinates
M83 ; extruder relative mode
M104 S215 ; set extruder temp
M140 S60 ; set bed temp
Tx
M190 S60 ; wait for bed temp
M109 S215 ; wait for extruder temp
G28 W ; home all without mesh bed level
G80 ; mesh bed leveling

;go outside print area
G1 Y-3 F1000
G1 Z0.4 F1000
; select extruder
Tc
; purge line
G1 X55 F2000
G1 Z0.3 F1000
G92 E0
G1 X240 E25 F2200
G1 Y-2 F1000
G1 X55 E25 F1400
G1 Z0.2 F1000
M73 P0 R128
G1 X5 E4 F1000

M221 S95
G92 E0

; Don't change E values below. Excessive value can damage the printer.
M907 E430 ; set extruder motor current
G21 ; set units to millimeters
G90 ; use absolute coordinates
M83 ; use relative distances for extrusion
M900 K0.05 ; Filament gcode LA 1.5
M900 K30 ; Filament gcode LA 1.0
M107
;LAYER_CHANGE
;Z:0.2
;HEIGHT:0.2
;BEFORE_LAYER_CHANGE
G92 E0.0
;0.2


G1 E-.8 F2100
G1 Z.4 F720
;AFTER_LAYER_CHANGE
;0.2
G1 X59.587 Y26.919 F10800
G1 Z.2 F720
G1 E.8 F2100
M204 S800
;TYPE:Skirt/Brim
;WIDTH:0.42
G1 F1200
G1 X61.536 Y22.603 E.14847
G1 X62.197 Y21.644 E.03651
G1 X62.715 Y21.204 E.02132
G1 X63.449 Y20.754 E.02699
G1 X65.067 Y20.136 E.05431
G1 X65.887 Y19.971 E.02622
G1 X66.658 Y19.916 E.02424
G1 X179.767 Y20.069 E3.54643
G1 X181.509 Y20.225 E.05484
G1 X182.613 Y20.485 E.03558
G1 X184.079 Y21.068 E.04947
G1 X185.062 Y21.637 E.03562
G1 X186.335 Y22.637 E.05075
G1 X187.12 Y23.431 E.03501
G1 X188.435 Y25.088 E.06633
G1 X189.049 Y26.127 E.03785
G1 X222.863 Y109.846 E2.83097
G1 X223.04 Y110.636 E.02539
M73 Q0 S129
G1 X222.987 Y111.407 E.02422
G1 X222.701 Y112.29 E.02908
G1 X188.386 Y188.246 E2.61331
G1 X187.878 Y189.043 E.02965
G1 X187.204 Y189.607 E.02756
G1 X186.596 Y189.886 E.02096
G1 X185.771 Y190.058 E.02643
G1 X184.965 Y190.082 E.02528
G1 X183.504 Y189.984 E.0459
G1 X178.856 Y189.416 E.14684
G1 X169.822 Y187.987 E.28678
G1 X162.862 Y186.752 E.22161
G1 X157.754 Y185.718 E.16342
G1 X149.807 Y183.749 E.25669
G1 X144.756 Y182.356 E.16429
G1 X139.86 Y180.884 E.1603
G1 X132.616 Y178.473 E.2394
G1 X127.719 Y176.688 E.16341
G1 X118.602 Y173.032 E.30797
G1 X109.601 Y168.969 E.30965
G1 X100.726 Y164.488 E.31172
G1 X92.167 Y159.689 E.30768
G1 X83.838 Y154.53 E.30719
G1 X75.745 Y149.017 E.30704
G1 X67.976 Y143.216 E.304
G1 X60.371 Y137.011 E.30777
G1 X52.945 Y130.394 E.31185
G1 X45.859 Y123.507 E.30982
G1 X39.108 Y116.363 E.30819
G1 X31.482 Y107.512 E.36631
G1 X29.071 Y104.418 E.12299
G1 X27.654 Y102.217 E.08208
G1 X27.237 Y101.284 E.03205
G1 X27.007 Y100.399 E.02865
G1 X27 Y99.371 E.03225
G1 X27.22 Y98.565 E.02618
G1 X59.562 Y26.973 E2.46314
M204 S1000
; printing object leg.stl id:0 copy 1
;WIPE_START
G1 F8640
G1 X60.917 Y23.974 E-.76
;WIPE_END
G1 E-.04 F2100
G1 Z.6 F720
G1 X143.047 Y72.355 F10800
G1 Z.2 F720
G1 E.8 F2100
M204 S800
;TYPE:Perimeter
G1 F1200
G1 X143.201 Y72.061 E.01038
G1 X143.764 Y71.31 E.02945
G1 X144.554 Y70.369 E.03852
G1 X145.549 Y69.251 E.04691
G1 X146.712 Y67.994 E.05371
G1 X149.37 Y65.237 E.12009
G1 X152.196 Y62.442 E.12461
G1 X153.568 Y61.138 E.05934
G1 X154.854 Y59.957 E.05476
G1 X156.013 Y58.943 E.04828
G1 X157.299 Y57.877 E.05238
G1 X158.321 Y57.094 E.04034
G1 X158.768 Y56.789 E.01698
G1 X159.181 Y56.54 E.01513
G1 X159.576 Y56.341 E.01385
G1 X159.963 Y56.191 E.01304
G1 X160.365 Y56.091 E.01298
G1 X160.723 Y56.048 E.01129
G1 X161.091 Y56.051 E.01156
G1 X161.454 Y56.094 E.01146
G1 X161.927 Y56.199 E.01519
G1 X162.384 Y56.37 E.01529
G1 X162.813 Y56.626 E.01565
G1 X163.194 Y56.969 E.01608
G1 X163.518 Y57.39 E.01664
G1 X163.789 Y57.881 E.0176
G1 X164.022 Y58.446 E.01917
G1 X164.23 Y59.096 E.02141
G1 X164.424 Y59.846 E.02427
G1 X164.611 Y60.712 E.02777
G1 X164.99 Y62.828 E.06742
G1 X165.341 Y65.174 E.07435
G1 X165.481 Y66.296 E.03546
G1 X165.689 Y68.456 E.06806
G1 X165.805 Y70.58 E.06667
G1 X165.833 Y72.729 E.06738
G1 X165.776 Y74.966 E.07019
G1 X165.669 Y77.183 E.06957
G1 X165.652 Y78.039 E.02684
G1 X165.666 Y78.707 E.02095
G1 X165.705 Y79.17 E.01457
G1 X165.743 Y79.35 E.00578
G1 X165.841 Y79.442 E.00423
G1 X166.035 Y79.682 E.00966
G1 X166.189 Y79.955 E.0098
G1 X166.29 Y80.256 E.00999
G1 X166.328 Y80.576 E.01008
G1 X166.3 Y80.894 E.01001
G1 X166.212 Y81.194 E.00982
G1 X166.076 Y81.47 E.00963
G1 X165.903 Y81.72 E.00954
G1 X165.691 Y81.959 E.01003
G1 X165.204 Y82.368 E.01993
G1 X164.551 Y82.759 E.02388
G1 X163.84 Y83.046 E.02402
G1 X163.096 Y83.232 E.02404
G1 X162.332 Y83.322 E.02413
G1 X161.559 Y83.323 E.02423
G1 X160.789 Y83.237 E.02429
G1 X160.033 Y83.067 E.0243
G1 X159.302 Y82.814 E.02425
G1 X158.608 Y82.478 E.02417
G1 X157.964 Y82.06 E.02409
G1 X157.384 Y81.557 E.02408
G1 X156.893 Y80.978 E.0238
G1 X156.698 Y80.672 E.01138
G1 X156.526 Y80.34 E.0117
G1 X156.246 Y79.647 E.02345
G1 X156.029 Y78.905 E.02423
G1 X155.887 Y78.172 E.0234
G1 X155.844 Y77.527 E.02029
G1 X155.081 Y77.287 E.02509
G1 X153.94 Y77.006 E.03683
G1 X152.222 Y76.627 E.05518
G1 X149.739 Y76.014 E.08019
G1 X148.565 Y75.693 E.03813
G1 X146.469 Y75.061 E.06867
G1 X145.564 Y74.755 E.02995
G1 X144.781 Y74.463 E.0262
G1 X144.126 Y74.187 E.02228
G1 X143.596 Y73.916 E.01866
G1 X143.115 Y73.571 E.01857
G1 X142.773 Y72.879 E.0242
G1 X143.019 Y72.408 E.01668
M204 S1000
G1 X143.196 Y72.884 F10800
M204 S800
;TYPE:External perimeter
G1 F1200
G1 X143.521 Y72.263 E.02197
G1 X144.06 Y71.544 E.02817
G1 X144.839 Y70.616 E.03803
G1 X145.828 Y69.505 E.04663
G1 X146.986 Y68.253 E.05347
G1 X149.639 Y65.502 E.11983
G1 X152.458 Y62.712 E.12435
G1 X153.825 Y61.413 E.05912
G1 X155.106 Y60.238 E.05451
G1 X156.258 Y59.23 E.04798
G1 X157.534 Y58.171 E.05199
G1 X158.542 Y57.4 E.03979
G1 X158.972 Y57.107 E.01633
G1 X159.364 Y56.87 E.01435
G1 X159.729 Y56.686 E.01282
G1 X160.077 Y56.551 E.01171
G1 X160.433 Y56.462 E.0115
G1 X160.744 Y56.425 E.00979
G1 X161.067 Y56.428 E.01015
G1 X161.391 Y56.466 E.01022
G1 X161.82 Y56.561 E.01377
G1 X162.22 Y56.712 E.0134
G1 X162.588 Y56.931 E.01344
G1 X162.916 Y57.226 E.01384
G1 X163.201 Y57.597 E.01467
G1 X163.449 Y58.045 E.01604
G1 X163.668 Y58.576 E.01802
G1 X163.868 Y59.201 E.02059
G1 X164.057 Y59.933 E.0237
G1 X164.241 Y60.785 E.02733
G1 X164.618 Y62.89 E.06704
G1 X164.968 Y65.225 E.07404
G1 X165.106 Y66.337 E.03515
G1 X165.313 Y68.485 E.06764
G1 X165.428 Y70.592 E.06618
G1 X165.455 Y72.726 E.06691
G1 X165.399 Y74.953 E.06983
G1 X165.293 Y77.17 E.0696
G1 X165.275 Y78.039 E.02724
G1 X165.289 Y78.726 E.02157
G1 X165.331 Y79.225 E.01569
G1 X165.391 Y79.506 E.00901
G1 X165.426 Y79.57 E.0023
G1 X165.564 Y79.7 E.00594
G1 X165.722 Y79.895 E.00787
G1 X165.843 Y80.109 E.00771
G1 X165.92 Y80.34 E.00764
G1 X165.949 Y80.581 E.00762
G1 X165.928 Y80.823 E.00762
G1 X165.859 Y81.057 E.00764
G1 X165.75 Y81.278 E.00773
G1 X165.606 Y81.487 E.00795
G1 X165.427 Y81.688 E.00844
G1 X164.985 Y82.06 E.01812
G1 X164.382 Y82.42 E.02201
G1 X163.723 Y82.686 E.02228
G1 X163.028 Y82.86 E.02247
G1 X162.31 Y82.945 E.02268
G1 X161.58 Y82.946 E.02287
G1 X160.852 Y82.864 E.02298
G1 X160.137 Y82.703 E.02299
G1 X159.447 Y82.464 E.0229
G1 X158.794 Y82.149 E.02273
G1 X158.191 Y81.758 E.02253
G1 X157.653 Y81.291 E.02235
G1 X157.197 Y80.754 E.02208
G1 X157.025 Y80.483 E.01005
G1 X156.869 Y80.183 E.01062
G1 X156.603 Y79.523 E.02231
G1 X156.396 Y78.816 E.02309
G1 X156.262 Y78.124 E.02211
G1 X156.22 Y77.502 E.01954
G1 X156.24 Y77.273 E.0072
G1 X155.771 Y77.096 E.01574
G1 X155.179 Y76.922 E.01934
G1 X154.026 Y76.639 E.03723
G1 X152.307 Y76.26 E.05517
G1 X149.834 Y75.649 E.0799
G1 X148.67 Y75.331 E.03783
G1 X146.584 Y74.702 E.06832
G1 X145.69 Y74.399 E.02957
G1 X144.92 Y74.113 E.02577
G1 X144.286 Y73.845 E.02159
G1 X143.793 Y73.593 E.01734
G1 X143.412 Y73.319 E.01473
G1 X143.222 Y72.938 E.01335
M204 S1000
G1 X142.868 Y72.654 F10800
;WIPE_START
G1 F8640
G1 X143.521 Y72.263 E-.1703
G1 X144.06 Y71.544 E-.20743
G1 X144.839 Y70.616 E-.28003
G1 X145.134 Y70.285 E-.10224
;WIPE_END
G1 E-.04 F2100
G1 Z.6 F720
G1 X177.111 Y30.536 F10800
G1 Z.2 F720
G1 E.8 F2100
M204 S800
;TYPE:Perimeter
G1 F1200
G1 X177.095 Y30.178 E.01123
G1 X177.193 Y29.635 E.01729
G1 X177.417 Y29.026 E.02034
G1 X177.568 Y28.742 E.0101
G1 X177.745 Y28.488 E.00971
G1 X177.958 Y28.26 E.00978
G1 X178.206 Y28.066 E.00987
G1 X178.484 Y27.916 E.00988
G1 X178.782 Y27.814 E.0099
G1 X179.104 Y27.757 E.01026
G1 X179.396 Y27.741 E.00915
G1 X179.712 Y27.759 E.00994
G1 X180.066 Y27.812 E.01122
G1 X180.314 Y27.893 E.00819
G1 X180.222 Y27.678 E.00736
G1 X180.172 Y27.324 E.01119
G1 X180.238 Y26.977 E.01109
G1 X180.366 Y26.695 E.0097
G1 X180.531 Y26.459 E.00903
G1 X180.734 Y26.248 E.00918
G1 X181.143 Y25.956 E.01576
G1 X181.402 Y25.831 E.00903
G1 X181.664 Y25.741 E.00868
G1 X181.946 Y25.685 E.009
G1 X182.248 Y25.673 E.00949
G1 X182.55 Y25.718 E.00959
G1 X182.819 Y25.81 E.00891
G1 X183.056 Y25.933 E.00836
G1 X183.269 Y26.088 E.00826
G1 X183.454 Y26.271 E.00817
G1 X183.609 Y26.479 E.0081
G1 X183.74 Y26.723 E.0087
G1 X183.874 Y27.194 E.01535
G1 X183.875 Y27.691 E.01557
G1 X183.82 Y27.967 E.00882
G1 X183.727 Y28.241 E.00908
G1 X183.529 Y28.596 E.01275
G1 X183.237 Y28.898 E.01317
G1 X182.886 Y29.107 E.01282
G1 X182.501 Y29.219 E.01256
G1 X182.114 Y29.229 E.01214
G1 X181.996 Y29.207 E.00378
G1 X182.191 Y29.706 E.01682
G1 X182.253 Y30.202 E.01566
G1 X182.205 Y30.697 E.0156
G1 X182.057 Y31.178 E.01577
G1 X181.81 Y31.631 E.01617
G1 X181.471 Y32.043 E.01674
G1 X181.039 Y32.411 E.01779
G1 X180.556 Y32.686 E.01744
G1 X180.035 Y32.845 E.01707
G1 X179.502 Y32.879 E.01677
G1 X178.952 Y32.77 E.01758
G1 X179.027 Y33.101 E.01064
G1 X179.028 Y33.497 E.01243
G1 X178.934 Y33.878 E.01228
G1 X178.764 Y34.223 E.01207
G1 X178.515 Y34.525 E.01227
G1 X178.197 Y34.766 E.01251
G1 X177.821 Y34.929 E.01285
G1 X177.407 Y34.999 E.01317
G1 X176.976 Y34.974 E.01353
G1 X176.697 Y34.898 E.00908
G1 X176.289 Y34.679 E.01451
G1 X175.938 Y34.383 E.0144
G1 X175.644 Y34.04 E.01416
G1 X175.42 Y33.663 E.01375
G1 X175.328 Y33.422 E.00809
G1 X175.274 Y33.157 E.00849
G1 X175.28 Y32.832 E.01017
G1 X175.403 Y32.516 E.01063
G1 X175.618 Y32.225 E.01137
G1 X175.948 Y31.902 E.01448
G1 X176.254 Y31.667 E.01208
G1 X176.572 Y31.475 E.01165
G1 X176.933 Y31.35 E.01196
G1 X177.319 Y31.322 E.01214
G1 X177.279 Y31.26 E.00231
G1 X177.12 Y30.732 E.01728
G1 X177.114 Y30.596 E.00428
M204 S1000
;WIPE_START
G1 F8640
G1 X177.095 Y30.178 E-.09653
G1 X177.193 Y29.635 E-.12734
G1 X177.417 Y29.026 E-.14981
G1 X177.568 Y28.742 E-.07438
G1 X177.745 Y28.488 E-.07148
G1 X177.958 Y28.26 E-.07205
G1 X178.206 Y28.066 E-.07269
G1 X178.484 Y27.916 E-.07279
G1 X178.577 Y27.884 E-.02293
;WIPE_END
G1 E-.04 F2100
G1 Z.6 F720
G1 X177.196 Y31.709 F10800
G1 Z.2 F720
G1 E.8 F2100
M204 S800
;TYPE:External perimeter
G1 F1200
G1 X177.301 Y31.701 E.0033
G1 X177.577 Y31.786 E.00907
G1 X177.994 Y32.114 E.01664
G1 X178.423 Y32.545 E.01908
G1 X178.58 Y32.836 E.01036
G1 X178.65 Y33.144 E.00989
G1 X178.651 Y33.452 E.00966
G1 X178.578 Y33.747 E.00954
G1 X178.445 Y34.017 E.00943
G1 X178.252 Y34.251 E.00952
G1 X178.006 Y34.438 E.00969
G1 X177.713 Y34.565 E.00999
G1 X177.386 Y34.62 E.0104
G1 X177.037 Y34.6 E.01096
G1 X176.837 Y34.545 E.0065
G1 X176.502 Y34.365 E.01193
G1 X176.204 Y34.114 E.01221
G1 X175.952 Y33.82 E.01217
G1 X175.761 Y33.498 E.01171
G1 X175.692 Y33.316 E.00613
G1 X175.651 Y33.122 E.0062
G1 X175.656 Y32.907 E.00675
G1 X175.736 Y32.7 E.00696
G1 X175.904 Y32.473 E.00884
G1 X176.196 Y32.187 E.01283
G1 X176.466 Y31.979 E.01069
G1 X176.733 Y31.819 E.00974
G1 X177.01 Y31.723 E.00919
G1 X177.136 Y31.713 E.00397
M204 S1000
G1 X177.237 Y31.612 F10800
G1 X177.625 Y31.101
M204 S800
G1 F1200
G1 X177.494 Y30.668 E.01415
G1 X177.474 Y30.204 E.01459
G1 X177.559 Y29.735 E.01494
G1 X177.762 Y29.181 E.01851
G1 X177.891 Y28.939 E.00858
G1 X178.039 Y28.725 E.00817
G1 X178.213 Y28.538 E.008
G1 X178.413 Y28.383 E.00794
G1 X178.635 Y28.263 E.00792
G1 X178.877 Y28.18 E.008
G1 X179.148 Y28.132 E.00863
G1 X179.395 Y28.119 E.00778
G1 X179.673 Y28.135 E.00873
G1 X179.979 Y28.181 E.00969
G1 X180.443 Y28.332 E.0153
G1 X180.822 Y28.574 E.01409
G1 X181.433 Y29.066 E.0246
G1 X181.677 Y29.408 E.01317
G1 X181.822 Y29.797 E.01302
G1 X181.873 Y30.207 E.01297
G1 X181.834 Y30.623 E.01308
G1 X181.707 Y31.03 E.01338
G1 X181.496 Y31.419 E.01387
G1 X181.201 Y31.778 E.01456
G1 X180.822 Y32.101 E.01561
G1 X180.406 Y32.337 E.01501
G1 X179.967 Y32.471 E.01439
G1 X179.524 Y32.5 E.01392
G1 X179.095 Y32.421 E.01367
G1 X178.713 Y32.235 E.01332
G1 X178.407 Y31.986 E.01238
G1 X177.86 Y31.467 E.02363
G1 X177.657 Y31.151 E.01177
M204 S1000
G1 X177.226 Y31.066 F10800
;WIPE_START
G1 F8640
G1 X177.494 Y30.668 E-.11762
G1 X177.474 Y30.204 E-.10742
G1 X177.559 Y29.735 E-.11004
G1 X177.762 Y29.181 E-.13628
G1 X177.891 Y28.939 E-.0632
G1 X178.039 Y28.725 E-.06013
G1 X178.213 Y28.538 E-.05894
G1 X178.413 Y28.383 E-.05844
G1 X178.596 Y28.284 E-.04792
;WIPE_END
G1 E-.04 F2100
G1 Z.6 F720
G1 X180.73 Y27.907 F10800
G1 Z.2 F720
G1 E.8 F2100
M204 S800
G1 F1200
G1 X180.589 Y27.575 E.01133
G1 X180.554 Y27.333 E.00766
G1 X180.6 Y27.092 E.0077
G1 X180.695 Y26.883 E.0072
G1 X180.824 Y26.7 E.00702
G1 X180.982 Y26.535 E.00717
G1 X181.336 Y26.281 E.01365
G1 X181.546 Y26.18 E.00731
G1 X181.763 Y26.106 E.00718
G1 X181.99 Y26.06 E.00728
G1 X182.227 Y26.051 E.00744
G1 X182.461 Y26.086 E.0074
G1 X182.671 Y26.158 E.00696
G1 X182.857 Y26.254 E.00659
G1 X183.024 Y26.376 E.00647
G1 X183.169 Y26.519 E.00639
G1 X183.289 Y26.681 E.00634
G1 X183.388 Y26.866 E.00655
G1 X183.497 Y27.247 E.01243
G1 X183.498 Y27.654 E.01275
G1 X183.455 Y27.869 E.00689
G1 X183.381 Y28.088 E.00723
G1 X183.224 Y28.37 E.01012
G1 X183.001 Y28.6 E.01005
G1 X182.735 Y28.759 E.00972
G1 X182.443 Y28.843 E.00953
G1 X182.145 Y28.851 E.00934
G1 X181.853 Y28.795 E.00934
G1 X181.584 Y28.669 E.0093
G1 X181.152 Y28.355 E.01673
G1 X180.938 Y28.16 E.00911
G1 X180.768 Y27.954 E.00836
M204 S1000
G1 X180.369 Y27.906 F10800
;WIPE_START
G1 F8640
G1 X180.589 Y27.575 E-.09678
G1 X180.554 Y27.333 E-.05641
G1 X180.6 Y27.092 E-.05671
G1 X180.695 Y26.883 E-.053
G1 X180.824 Y26.7 E-.05172
G1 X180.982 Y26.535 E-.05283
G1 X181.336 Y26.281 E-.10054
G1 X181.546 Y26.18 E-.05381
G1 X181.763 Y26.106 E-.0529
G1 X181.99 Y26.06 E-.05358
G1 X182.227 Y26.051 E-.05477
G1 X182.461 Y26.086 E-.05446
G1 X182.553 Y26.117 E-.02248
;WIPE_END
G1 E-.04 F2100
G1 Z.6 F720
G1 X130.441 Y71.401 F10800
G1 Z.2 F720
G1 E.8 F2100
M204 S800
;TYPE:Perimeter
G1 F1200
G1 X129.995 Y72.342 E.03268
G1 X129.109 Y73.987 E.05859
G1 X128.881 Y74.326 E.0128
G1 X128.54 Y74.647 E.01468
G1 X128.063 Y74.843 E.01616
G1 X127.558 Y74.853 E.01584
G1 X127.072 Y74.746 E.0156
G1 X126.553 Y74.56 E.0173
G1 X125.941 Y74.297 E.02089
G1 X123.2 Y72.996 E.09513
G1 X122.053 Y72.431 E.04008
G1 X119.472 Y71.07 E.0915
G1 X118.105 Y70.314 E.04898
G1 X115.42 Y68.772 E.09708
G1 X113.038 Y67.328 E.08734
G1 X112.048 Y66.693 E.03687
G1 X111.239 Y66.145 E.03063
G1 X110.628 Y65.687 E.02396
G1 X110.161 Y65.237 E.02031
G1 X110.031 Y64.85 E.01282
G1 X110.034 Y64.521 E.01031
G1 X110.137 Y64.057 E.0149
G1 X110.315 Y63.585 E.01581
G1 X110.543 Y63.122 E.0162
G1 X110.808 Y62.703 E.01555
G1 X110.977 Y62.495 E.00839
G1 X111.207 Y62.28 E.00987
G1 X111.458 Y62.159 E.00874
G1 X111.709 Y62.115 E.00798
G1 X112.034 Y62.132 E.01022
G1 X112.359 Y62.201 E.01042
G1 X112.985 Y62.426 E.02085
G1 X115.423 Y63.601 E.08484
G1 X118.578 Y65.04 E.10872
G1 X122.22 Y66.648 E.12486
G1 X127.932 Y69.094 E.19481
