; generated by PrusaSlicer 2.4.0+x64 on 2021-12-28 at 21:30:28 UTC

; 

; external perimeters extrusion width = 0.45mm
; perimeters extrusion width = 0.45mm
; infill extrusion width = 0.45mm
; solid infill extrusion width = 0.45mm
; top infill extrusion width = 0.40mm
; support material extrusion width = 0.35mm
; first layer extrusion width = 0.42mm

M73 P0 R52
M73 Q0 S53
M201 X1000 Y1000 Z200 E5000 ; sets maximum accelerations, mm/sec^2
M203 X200 Y200 Z12 E120 ; sets maximum feedrates, mm/sec
M204 P1250 R1250 T1250 ; sets acceleration (P, T) and retract acceleration (R), mm/sec^2
M205 X8.00 Y8.00 Z0.40 E4.50 ; sets the jerk limits, mm/sec
M205 S0 T0 ; sets the minimum extruding and travel feed rate, mm/sec
M107
;TYPE:Custom
M862.3 P "MK3SMMU2S" ; printer model check
M862.1 P0.4 ; nozzle diameter check
M115 U3.10.0 ; tell printer latest fw version
G90 ; use absolute coordinates
M83 ; extruder relative mode
M104 S215 ; set extruder temp
M140 S60 ; set bed temp
Tx
M190 S60 ; wait for bed temp
M109 S215 ; wait for extruder temp
G28 W ; home all without mesh bed level
G80 ; mesh bed leveling

;go outside print area
G1 Y-3 F1000
G1 Z0.4 F1000
; select extruder
Tc
; purge line
G1 X55 F2000
G1 Z0.3 F1000
G92 E0
G1 X240 E25 F2200
G1 Y-2 F1000
G1 X55 E25 F1400
G1 Z0.2 F1000
G1 X5 E4 F1000

M221 S95
G92 E0

; Don't change E values below. Excessive value can damage the printer.
M907 E430 ; set extruder motor current
G21 ; set units to millimeters
G90 ; use absolute coordinates
M83 ; use relative distances for extrusion
M900 K0.05 ; Filament gcode LA 1.5
M900 K30 ; Filament gcode LA 1.0
M107
;LAYER_CHANGE
;Z:0.2
;HEIGHT:0.2
;BEFORE_LAYER_CHANGE
G92 E0.0
;0.2


G1 E-.8 F2100
G1 Z.4 F720
;AFTER_LAYER_CHANGE
;0.2
G1 X88.676 Y69.402 F10800
G1 Z.2 F720
G1 E.8 F2100
M204 S800
;TYPE:Skirt/Brim
;WIDTH:0.42
G1 F1200
G1 X89.219 Y68.782 E.02585
G1 X89.812 Y68.285 E.02427
G1 X91.037 Y67.537 E.04499
G1 X93.836 Y66.325 E.09562
G1 X99.014 Y64.497 E.17218
G1 X102.533 Y63.467 E.11497
G1 X106.937 Y62.495 E.1414
G1 X112.586 Y61.553 E.17958
G1 X115.864 Y61.472 E.10282
G1 X121.175 Y61.537 E.16651
G1 X128.653 Y61.759 E.23459
G1 X131.903 Y62.077 E.10237
G1 X134.977 Y62.663 E.09812
G1 X138.11 Y63.456 E.10132
G1 X141.59 Y64.469 E.11364
G1 X144.975 Y65.566 E.11159
G1 X147.829 Y66.632 E.09552
G1 X149.661 Y67.437 E.06272
G1 X150.779 Y68.07 E.04029
G1 X151.695 Y68.824 E.0372
G1 X152.401 Y69.812 E.03807
G1 X152.799 Y70.99 E.03899
G1 X156.232 Y87.71 E.53519
G1 X161.911 Y130.077 E1.34024
G1 X162.037 Y132.645 E.08062
G1 X162.06 Y137.851 E.16324
G1 X161.962 Y141.747 E.12219
G1 X161.752 Y144.603 E.0898
G1 X161.503 Y145.892 E.04117
G1 X161.19 Y146.586 E.02385
G1 X160.464 Y147.511 E.03688
G1 X159.768 Y148.036 E.02733
G1 X158.926 Y148.395 E.0287
G1 X158.249 Y148.516 E.02158
G1 X156.95 Y148.448 E.04077
G1 X91.618 Y134.298 E2.09593
G1 X90.661 Y133.974 E.03168
G1 X89.743 Y133.394 E.03405
G1 X89.075 Y132.672 E.03084
G1 X88.359 Y131.502 E.04302
G1 X88.061 Y130.646 E.0284
G1 X87.984 Y129.938 E.02234
G1 X87.936 Y116.535 E.42025
G1 X87.944 Y71.549 E1.41049
G1 X88.04 Y70.798 E.02377
M73 P1 R52
M73 Q1 S52
G1 X88.232 Y70.195 E.01982
G1 X88.647 Y69.455 E.02662
M204 S1000
; printing object untitled-path1934.stl id:0 copy 0
;WIPE_START
G1 F8640
G1 X89.219 Y68.782 E-.20391
G1 X89.812 Y68.285 E-.17875
G1 X91.037 Y67.537 E-.3313
G1 X91.22 Y67.458 E-.04604
;WIPE_END
G1 E-.04 F2100
G1 Z.6 F720
G1 X131.223 Y131.805 F10800
G1 Z.2 F720
G1 E.8 F2100
M204 S800
;TYPE:Perimeter
G1 F1200
G1 X131.835 Y131.751 E.01927
G1 X133.419 Y131.664 E.04976
G1 X136.834 Y131.589 E.10708
G1 X139.742 Y131.557 E.09117
G1 X155.684 Y131.549 E.49988
G1 X155.681 Y136.427 E.15294
G1 X155.634 Y137.782 E.04251
G1 X155.575 Y138.545 E.02399
G1 X155.494 Y139.167 E.01967
G1 X155.376 Y139.661 E.01591
G1 X155.093 Y140.241 E.02025
G1 X154.451 Y140.282 E.02017
G1 X154.181 Y140.267 E.00848
G1 X153.833 Y140.193 E.01115
G1 X153.51 Y140.073 E.01081
G1 X151.835 Y139.577 E.05478
G1 X148.934 Y138.67 E.0953
G1 X145.427 Y137.646 E.11454
G1 X141.161 Y136.477 E.13871
G1 X136.074 Y135.154 E.16479
G1 X133.555 Y134.454 E.082
G1 X132.222 Y134.051 E.04365
G1 X131.246 Y133.721 E.03233
G1 X130.844 Y133.562 E.01355
G1 X129.638 Y132.783 E.045
G1 X130.72 Y131.876 E.04427
G1 X131.163 Y131.813 E.01404
M204 S1000
G1 X130.88 Y132.234 F10800
M204 S800
;TYPE:External perimeter
G1 F1200
G1 X131.32 Y132.172 E.01393
G1 X131.861 Y132.127 E.01703
G1 X133.434 Y132.041 E.0494
G1 X136.84 Y131.966 E.10683
G1 X139.744 Y131.934 E.09105
G1 X155.307 Y131.926 E.48797
G1 X155.304 Y136.42 E.14091
G1 X155.257 Y137.761 E.04205
G1 X155.199 Y138.506 E.02344
G1 X155.123 Y139.099 E.01874
G1 X155.019 Y139.533 E.01398
G1 X154.85 Y139.879 E.01208
G1 X154.45 Y139.905 E.01258
G1 X154.231 Y139.892 E.00687
G1 X153.939 Y139.83 E.00937
G1 X153.63 Y139.715 E.01034
G1 X151.945 Y139.216 E.05511
G1 X149.043 Y138.309 E.09532
G1 X145.53 Y137.283 E.11474
G1 X141.258 Y136.113 E.13888
G1 X136.172 Y134.79 E.16477
G1 X133.66 Y134.092 E.08176
G1 X132.337 Y133.692 E.04333
G1 X131.375 Y133.367 E.03184
G1 X131.017 Y133.225 E.01209
G1 X130.272 Y132.744 E.02781
G1 X130.834 Y132.273 E.02299
M204 S1000
G1 X130.824 Y131.838 F10800
;WIPE_START
G1 F8640
G1 X131.32 Y132.172 E-.1146
G1 X131.861 Y132.127 E-.12539
G1 X133.434 Y132.041 E-.36379
G1 X134.11 Y132.026 E-.15622
;WIPE_END
G1 E-.04 F2100
G1 Z.6 F720
G1 X94.432 Y128.331 F10800
G1 Z.2 F720
G1 E.8 F2100
M204 S800
;TYPE:Perimeter
G1 F1200
G1 X124.179 Y128.334 E.93272
G1 X142.726 Y128.367 E.58153
G1 X150.171 Y128.435 E.23343
G1 X155.576 Y128.537 E.16949
G1 X155.338 Y128.877 E.013
G1 X155.185 Y129.297 E.014
G1 X155.116 Y129.683 E.01231
G1 X155.105 Y130.057 E.01172
G1 X155.149 Y130.42 E.01146
G1 X155.244 Y130.767 E.01128
G1 X155.392 Y131.093 E.01122
G1 X155.59 Y131.391 E.01124
G1 X155.846 Y131.662 E.01166
G1 X156.442 Y132.07 E.02266
G1 X156.885 Y132.152 E.01413
G1 X157.625 Y132.178 E.0232
G1 X158.42 Y131.905 E.02638
G1 X158.773 Y131.617 E.01428
G1 X158.886 Y131.496 E.00516
G1 X158.865 Y131.695 E.00626
G1 X158.898 Y135.18 E.10929
G1 X158.896 Y137.815 E.0826
G1 X158.863 Y139.824 E.06299
G1 X158.789 Y142.047 E.06974
G1 X158.798 Y142.265 E.00687
G1 X158.518 Y142.024 E.0116
G1 X158.158 Y141.828 E.01286
G1 X157.741 Y141.667 E.01401
G1 X157.303 Y141.633 E.01376
G1 X156.981 Y141.635 E.01012
G1 X156.544 Y141.678 E.01376
G1 X156.134 Y141.88 E.01431
G1 X155.807 Y142.097 E.01231
G1 X155.505 Y142.423 E.01393
G1 X155.289 Y142.826 E.01434
G1 X155.129 Y143.473 E.02089
G1 X155.154 Y144 E.01655
G1 X154.777 Y143.683 E.01544
G1 X154.035 Y143.128 E.02905
G1 X153.253 Y142.611 E.02938
G1 X152.689 Y142.285 E.02045
G1 X152.09 Y141.971 E.02119
G1 X151.444 Y141.665 E.02239
G1 X150.74 Y141.361 E.02405
G1 X149.142 Y140.748 E.05366
G1 X148.214 Y140.424 E.03082
G1 X146.077 Y139.728 E.07047
G1 X142.3 Y138.584 E.12375
G1 X138.525 Y137.529 E.12289
G1 X134.749 Y136.564 E.12221
G1 X130.966 Y135.686 E.12175
G1 X127.173 Y134.895 E.12149
G1 X123.364 Y134.191 E.12145
G1 X119.535 Y133.573 E.12162
G1 X115.681 Y133.039 E.122
G1 X111.797 Y132.589 E.12259
G1 X107.879 Y132.223 E.12339
G1 X103.926 Y131.939 E.12427
G1 X99.929 Y131.699 E.12555
M73 P1 R51
G1 X94.066 Y131.47 E.18395
G1 X94.127 Y131.42 E.00244
G1 X94.297 Y131.204 E.00863
G1 X94.431 Y130.967 E.00855
G1 X94.523 Y130.695 E.00899
G1 X94.599 Y130.209 E.01542
G1 X94.6 Y129.677 E.01668
G1 X94.529 Y129.195 E.01529
G1 X94.446 Y128.936 E.00852
G1 X94.331 Y128.698 E.00828
G1 X94.174 Y128.476 E.00855
G1 X94.032 Y128.325 E.0065
G1 X94.372 Y128.33 E.01066
M204 S1000
G1 X93.614 Y128.39 F10800
M204 S800
;TYPE:External perimeter
G1 F1200
G1 X94.005 Y128.891 E.01992
G1 X94.095 Y129.076 E.00647
G1 X94.16 Y129.28 E.0067
G1 X94.223 Y129.705 E.01345
G1 X94.222 Y130.18 E.0149
G1 X94.156 Y130.605 E.01349
G1 X94.086 Y130.812 E.00686
G1 X93.983 Y130.993 E.00654
G1 X93.856 Y131.155 E.00644
G1 X93.55 Y131.405 E.01238
G1 X93.319 Y131.47 E.00752
G1 X93.127 Y131.493 E.00607
G1 X92.424 Y131.523 E.02205
G1 X92.095 Y131.507 E.01035
G1 X91.793 Y131.404 E.01
G1 X91.523 Y131.267 E.0095
G1 X91.426 Y131.15 E.00476
G1 X91.317 Y131.081 E.00404
G1 X91.174 Y130.769 E.01077
G1 X91.071 Y130.439 E.01085
G1 X91.011 Y130.117 E.01026
G1 X91.003 Y129.804 E.00982
G1 X91.046 Y129.512 E.00926
G1 X91.13 Y129.243 E.00884
G1 X91.258 Y128.998 E.00866
G1 X91.427 Y128.786 E.00851
G1 X91.844 Y128.432 E.01716
G1 X92.132 Y128.312 E.00977
G1 X92.732 Y128.255 E.01891
G1 X93.166 Y128.286 E.01362
G1 X93.556 Y128.376 E.01256
M204 S1000
G1 X93.984 Y128.237 F10800
;WIPE_START
G1 F8640
G1 X94.005 Y128.891 E-.15771
G1 X94.095 Y129.076 E-.04763
G1 X94.16 Y129.28 E-.04935
G1 X94.223 Y129.705 E-.09908
G1 X94.222 Y130.18 E-.1097
G1 X94.156 Y130.605 E-.09937
G1 X94.086 Y130.812 E-.0505
G1 X93.983 Y130.993 E-.04816
G1 X93.856 Y131.155 E-.04744
G1 X93.685 Y131.295 E-.05105
;WIPE_END
G1 E-.04 F2100
G1 Z.6 F720
G1 X158.158 Y128.351 F10800
G1 Z.2 F720
G1 E.8 F2100
M204 S800
G1 F1200
G1 X158.736 Y128.706 E.02128
G1 X158.965 Y128.929 E.01001
G1 X159.121 Y129.202 E.00988
G1 X159.203 Y129.497 E.00958
G1 X159.225 Y129.787 E.00911
G1 X159.193 Y130.071 E.00896
G1 X159.113 Y130.343 E.00891
G1 X159.002 Y130.571 E.00794
G1 X158.911 Y130.858 E.00944
G1 X158.72 Y131.121 E.0102
G1 X158.515 Y131.341 E.00941
G1 X158.234 Y131.57 E.01138
G1 X157.568 Y131.799 E.02207
G1 X156.926 Y131.776 E.02014
G1 X156.589 Y131.713 E.01076
G1 X156.092 Y131.373 E.01889
G1 X155.886 Y131.156 E.00938
G1 X155.723 Y130.91 E.00927
G1 X155.6 Y130.638 E.00934
G1 X155.52 Y130.347 E.00948
G1 X155.483 Y130.04 E.00969
G1 X155.492 Y129.722 E.00997
G1 X155.55 Y129.395 E.0104
G1 X155.675 Y129.053 E.01142
G1 X155.885 Y128.753 E.01148
G1 X156.194 Y128.551 E.01158
G1 X156.815 Y128.36 E.02036
G1 X157.147 Y128.322 E.01049
G1 X157.468 Y128.315 E.01005
G1 X158.098 Y128.348 E.01978
M204 S1000
G1 X158.471 Y128.102 F10800
;WIPE_START
G1 F8640
G1 X158.736 Y128.706 E-.16899
G1 X158.965 Y128.929 E-.07371
G1 X159.121 Y129.202 E-.07278
G1 X159.203 Y129.497 E-.07053
G1 X159.225 Y129.787 E-.06711
G1 X159.193 Y130.071 E-.06601
G1 X159.113 Y130.343 E-.06564
G1 X159.002 Y130.571 E-.05849
G1 X158.911 Y130.858 E-.06952
G1 X158.791 Y131.024 E-.04723
;WIPE_END
G1 E-.04 F2100
G1 Z.6 F720
G1 X156.831 Y145.694 F10800
G1 Z.2 F720
G1 E.8 F2100
M204 S800
G1 F1200
G1 X157.21 Y145.816 E.01248
G1 X157.608 Y145.836 E.01251
G1 X158.006 Y145.74 E.01284
G1 X158.38 Y145.517 E.01366
G1 X158.707 Y145.169 E.01495
G1 X158.917 Y144.84 E.01223
G1 X159.055 Y144.517 E.01103
G1 X159.122 Y144.189 E.0105
G1 X159.113 Y143.857 E.01041
G1 X159.03 Y143.524 E.01076
G1 X158.89 Y143.211 E.01075
G1 X158.789 Y142.891 E.01052
G1 X158.582 Y142.576 E.01181
G1 X158.302 Y142.336 E.01155
G1 X157.999 Y142.171 E.01082
G1 X157.657 Y142.039 E.01151
G1 X157.289 Y142.01 E.01155
G1 X157 Y142.012 E.00907
G1 X156.649 Y142.047 E.01105
G1 X156.323 Y142.208 E.01142
G1 X156.053 Y142.386 E.01014
G1 X155.815 Y142.644 E.011
G1 X155.644 Y142.963 E.01134
G1 X155.508 Y143.51 E.01768
G1 X155.533 Y144.046 E.01682
G1 X155.723 Y144.503 E.01554
G1 X156.185 Y145.199 E.02617
G1 X156.485 Y145.484 E.01297
G1 X156.83 Y145.694 E.01267
G1 X156.177 Y145.366 E.02291
G1 X155.657 Y145.042 E.0192
G1 X154.867 Y144.246 E.03519
G1 X154.544 Y143.979 E.01313
G1 X153.818 Y143.436 E.02842
G1 X153.055 Y142.932 E.02868
G1 X152.507 Y142.615 E.01985
G1 X151.921 Y142.309 E.02071
G1 X150.598 Y141.71 E.04555
G1 X149.013 Y141.102 E.05323
G1 X148.094 Y140.781 E.03051
G1 X145.964 Y140.088 E.07023
G1 X142.194 Y138.946 E.1235
G1 X138.428 Y137.894 E.12263
G1 X134.66 Y136.93 E.12195
G1 X130.885 Y136.054 E.12148
G1 X127.1 Y135.266 E.12122
G1 X123.3 Y134.563 E.12118
G1 X119.479 Y133.946 E.12135
G1 X115.633 Y133.413 E.12173
G1 X111.758 Y132.964 E.12233
G1 X107.848 Y132.599 E.12313
G1 X103.901 Y132.315 E.12407
G1 X99.91 Y132.076 E.12536
G1 X94.163 Y131.846 E.18035
G1 X93.731 Y131.849 E.01353
G1 X92.972 Y131.888 E.02382
G1 X92.663 Y131.869 E.00973
G1 X92.174 Y131.771 E.01562
G1 X91.811 Y131.656 E.01194
G1 X91.551 Y131.525 E.00913
G1 X91.357 Y131.372 E.00775
G1 X91.193 Y131.186 E.00779
G1 X90.879 Y130.717 E.01768
G1 X90.675 Y130.346 E.01327
G1 X90.594 Y130.052 E.00956
G1 X90.599 Y129.813 E.00751
G1 X90.694 Y129.504 E.01013
G1 X90.918 Y129.107 E.0143
G1 X91.317 Y128.492 E.02297
G1 X91.569 Y128.148 E.01338
G1 X91.777 Y127.912 E.00986
G1 X92.403 Y127.881 E.01966
G1 X92.827 Y127.88 E.01328
G1 X93.696 Y127.942 E.02732
G1 X94.63 Y127.957 E.0293
G1 X124.179 Y127.957 E.9265
G1 X142.729 Y127.99 E.5816
G1 X150.176 Y128.058 E.23353
G1 X155.59 Y128.16 E.16976
G1 X155.985 Y128.129 E.01242
G1 X156.36 Y128.073 E.01191
G1 X156.691 Y128.056 E.01038
G1 X157.375 Y128.12 E.02154
G1 X158.06 Y128.235 E.02177
G1 X158.46 Y128.364 E.01319
G1 X158.678 Y128.503 E.00811
G1 X158.831 Y128.66 E.00686
G1 X158.966 Y128.846 E.00722
G1 X159.082 Y129.078 E.00814
G1 X159.181 Y129.383 E.01004
G1 X159.265 Y129.779 E.0127
G1 X159.357 Y130.596 E.02579
G1 X159.242 Y131.712 E.03518
G1 X159.275 Y135.179 E.10869
G1 X159.273 Y137.818 E.08275
G1 X159.24 Y139.833 E.06318
G1 X159.166 Y142.044 E.06938
G1 X159.185 Y142.466 E.01323
G1 X159.287 Y143.183 E.02269
G1 X159.18 Y144.324 E.03594
G1 X159.056 Y145.05 E.0231
G1 X159.002 Y145.206 E.00518
G1 X158.821 Y145.487 E.01047
G1 X158.615 Y145.701 E.00931
G1 X158.388 Y145.848 E.00848
G1 X158.137 Y145.931 E.00829
G1 X157.838 Y145.941 E.00938
G1 X157.49 Y145.917 E.01095
G1 X157.104 Y145.808 E.01257
G1 X156.886 Y145.717 E.0074
M204 S1000
G1 X157.209 Y145.818 F10800
;WIPE_START
G1 F8640
G1 X157.21 Y145.816 E-.07809
G1 X157.608 Y145.836 E-.09209
G1 X158.006 Y145.74 E-.09459
G1 X158.38 Y145.517 E-.10061
G1 X158.707 Y145.169 E-.11009
G1 X158.917 Y144.84 E-.09009
G1 X159.055 Y144.517 E-.08122
G1 X159.122 Y144.189 E-.07732
G1 X159.118 Y144.033 E-.03589
;WIPE_END
G1 E-.04 F2100
G1 Z.6 F720
G1 X155.568 Y144.653 F10800
G1 Z.2 F720
G1 E.8 F2100
M204 S800
;TYPE:Gap fill
;WIDTH:0.100838
G1 F1200
G1 X155.531 Y144.606 E.00029
M204 S1000
M204 S800
;WIDTH:0.102378
G1 X155.528 Y144.602 E.00003
M204 S1000
M204 S800
;WIDTH:0.137063
G1 X155.478 Y144.527 E.0007
M204 S1000
M204 S800
;WIDTH:0.171747
G1 X155.428 Y144.453 E.00096
M204 S1000
M204 S800
;WIDTH:0.171746
G1 X155.401 Y144.329 E.00135
M204 S1000
M204 S800
;WIDTH:0.132533
G1 X155.373 Y144.206 E.00094
M204 S1000
;WIPE_START
G1 F8640
G1 X155.401 Y144.329 E-.0292
;WIPE_END
G1 E-.7708 F2100
G1 Z.6 F720
G1 X158.828 Y142.569 F10800
G1 Z.2 F720
G1 E.8 F2100
M204 S800
;WIDTH:0.121497
G1 F1200
G1 X158.904 Y142.655 E.00075
M204 S1000
M204 S800
;WIDTH:0.149675
G1 X158.979 Y142.741 E.00102
M204 S1000
M204 S800
;WIDTH:0.149674
G1 X158.996 Y142.785 E.00042
M204 S1000
M204 S800
;WIDTH:0.128721
G1 X159 Y142.797 E.00008
M204 S1000
M204 S800
;WIDTH:0.125179
G1 X159.048 Y143.008 E.00148
M204 S1000
;WIPE_START
G1 F8640
G1 X159 Y142.797 E-.05009
;WIPE_END
G1 E-.74991 F2100
G1 Z.6 F720
G1 X155.9 Y128.403 F10800
G1 Z.2 F720
G1 E.8 F2100
M204 S800
;WIDTH:0.124227
G1 F1200
G1 X156.102 Y128.341 E.00143
M204 S1000
M204 S800
;WIDTH:0.12098
G1 X156.306 Y128.295 E.00136
M204 S1000
G1 X156.294 Y128.273 F10800
M204 S800
;WIDTH:0.161045
G1 F1200
G1 X156.011 Y128.375 E.00295
M204 S1000
M204 S800
;WIDTH:0.170575
G1 X155.992 Y128.382 E.00021
M204 S1000
M204 S800
;WIDTH:0.170575
G1 X155.911 Y128.461 E.00121
M204 S1000
M204 S800
;WIDTH:0.131948
G1 X155.829 Y128.54 E.00084
M204 S1000
;WIPE_START
G1 F8640
G1 X155.911 Y128.461 E-.02635
;WIPE_END
G1 E-.77365 F2100
G1 Z.6 F720
G1 X159.111 Y130.927 F10800
G1 Z.2 F720
G1 E.8 F2100
M204 S800
;WIDTH:0.0933897
G1 F1200
G1 X159.105 Y130.952 E.00011
M204 S1000
M204 S800
;WIDTH:0.096473
G1 X158.992 Y131.338 E.00179
M204 S1000
G1 X158.843 Y131.27 F10800
M204 S800
;WIDTH:0.101153
G1 F1200
G1 X159.104 Y131.209 E.0013
M204 S1000
;WIPE_START
G1 F8640
G1 X158.843 Y131.27 E-.06206
;WIPE_END
G1 E-.73794 F2100
G1 Z.6 F720
G1 X158.297 Y132.067 F10800
G1 Z.2 F720
G1 E.8 F2100
M204 S800
;TYPE:Solid infill
;WIDTH:0.420713
G1 F1200
G1 X158.589 Y132.358 E.01295
G1 X158.594 Y132.898 E.01694
G1 X158.033 Y132.337 E.02491
G1 X157.667 Y132.463 E.01216
G1 X157.623 Y132.461 E.00138
G1 X158.599 Y133.437 E.04335
G1 X158.604 Y133.976 E.01694
